!!!!SEGMENT: pl-cz--iii-667--001-001_scigalski-franciszek--litania-kyrie.krn
!!!cenid: 18xx:1078
!!!COM: Ścigalski, Franciszek
!!!COM-rismid: pe30002948
!!!CDT: 1782/01/29-1846/09/27
!!!CNT: Polish
!!!OPR: Litania
!!!OTL: Kyrie
!!!OMV: 001
!!!PDT:
!!!AGN: Sacred; Mass
!!!SMS-siglum: PL-CZ
!!!SMS-shelfmark: III-667
!!!SMS-shelfwork: 001-001 M
!!!SMS-variant:
!!!SMS-altvar:
!!!NIFC-rismid: 300001311
!!!URL-scan: http://repozytorium.nifc.pl/skany/pl-cz-nut--iii-667
!!!ONB-nifc: UWAGA: części Litanii: Kyrie, Sancta Maria, Vas spirituale, Domus aurea, Regina angelorum, Agnus Dei
!!!key: F
**kern	**fba	**dynam	**kern	**dynam	**kern	**dynam	**fing	**kern	**text	**kern	**text	**kern	**text	**dynam	**kern	**text	**dynam	**kern	**text	**dynam	**kern	**text	**dynam	**kern	**dynam	**kern	**dynam	**kern	**dynam	**kern	**dynam	**kern	**dynam
*	*	*	*group5	*	*group5	*	*	*group4	*	*group4	*	*group4	*	*	*group4	*	*	*group3	*	*	*group3	*	*	*group2	*	*group2	*	*group2	*	*group1	*	*group1	*
*part14	*part14	*part14	*part13	*part13	*part12	*part12	*part12	*part11	*part11	*part10	*part10	*part9	*part9	*part9	*part8	*part8	*part8	*part7	*part7	*part7	*part6	*part6	*part6	*part5	*part5	*part4	*part4	*part3	*part3	*part2	*part2	*part1	*part1
*staff14	*	*	*staff13	*	*staff12	*	*	*staff11	*staff11	*staff10	*staff10	*staff9	*staff9	*	*staff8	*staff8	*	*staff7	*staff7	*	*staff6	*staff6	*	*staff5	*	*staff4	*	*staff3	*	*staff2	*	*staff1	*
*I"Organo.	*	*	*I"Violino 2do	*	*I"Violino Imo	*	*	*I"Basſso. Basſo	*	*I"Tenore. Tenore.	*	*I"Alto. Coro Alto .	*	*	*I"Canto Coro Canto.	*	*	*I"Alto alto.	*	*	*I"Canto	*	*	*I"Duo Clarini in C.	*	*I"Corno 2do in F.	*	*I"Corno Imo in F.	*	*I"Clarinetto 2do in B.	*	*I"Clarinetto Imo in B.	*
*I'org	*	*	*I'vl 2	*	*I'vl 1	*	*	*I'Coro B	*	*I'Coro T	*	*I'Coro A	*	*	*I'Coro S	*	*	*I'A	*	*	*I'S	*	*	*I'clno 1 & 2 in C	*	*I'cor 2 in F	*	*I'cor 1 in F	*	*I'cl 2 in B|b	*	*I'cl 1 in B|b	*
*Iorgan	*	*	*Ivioln	*	*Ivioln	*	*	*Ibass	*	*Itenor	*	*Ialto	*	*	*Isoprn	*	*	*Ialto	*	*	*Isoprn	*	*	*Itromp	*	*Icor	*	*Icor	*	*Iclars	*	*Iclars	*
*ICklav	*	*	*ICstr	*	*ICstr	*	*	*ICvox	*	*ICvox	*	*ICvox	*	*	*ICvox	*	*	*ICvox	*	*	*ICvox	*	*	*ICbras	*	*ICbras	*	*ICbras	*	*ICww	*	*ICww	*
*IGcont	*	*	*	*	*	*	*	*IGcoro	*	*IGcoro	*	*IGcoro	*	*	*IGcoro	*	*	*IGsolo	*	*	*IGsolo	*	*	*	*	*	*	*	*	*	*	*	*
*clefF4	*	*	*clefG2	*	*clefG2	*	*	*clefF4	*	*clefC4	*	*clefC3	*	*	*clefC1	*	*	*clefC3	*	*	*clefC1	*	*	*clefG2	*	*clefG2	*	*clefG2	*	*clefG2	*	*clefG2	*
*	*	*	*	*	*	*	*	*	*	*	*	*	*	*	*	*	*	*	*	*	*	*	*	*	*	*ITrd4c7	*	*ITrd4c7	*	*ITrd1c2	*	*ITrd1c2	*
*k[b-]	*	*	*k[b-]	*	*k[b-]	*	*	*k[b-]	*	*k[b-]	*	*k[b-]	*	*	*k[b-]	*	*	*k[b-]	*	*	*k[b-]	*	*	*	*	*k[b-]	*	*k[b-]	*	*k[b-]	*	*k[b-]	*
*F:	*	*	*F:	*	*F:	*	*	*F:	*	*F:	*	*F:	*	*	*F:	*	*	*F:	*	*	*F:	*	*	*F:	*	*	*	*	*	*F:	*	*F:	*
*M4/4	*	*	*M4/4	*	*M4/4	*	*	*M4/4	*	*M4/4	*	*M4/4	*	*	*M4/4	*	*	*M4/4	*	*	*M4/4	*	*	*M4/4	*	*M4/4	*	*M4/4	*	*M4/4	*	*M4/4	*
*met(c)	*	*	*met(c)	*	*met(c)	*	*	*met(c)	*	*met(c)	*	*met(c)	*	*	*met(c)	*	*	*met(c)	*	*	*met(c)	*	*	*met(c)	*	*met(c)	*	*met(c)	*	*met(c)	*	*met(c)	*
=1	=1	=1	=1	=1	=1	=1	=1	=1	=1	=1	=1	=1	=1	=1	=1	=1	=1	=1	=1	=1	=1	=1	=1	=1	=1	=1	=1	=1	=1	=1	=1	=1	=1
*	*	*	*	*	*	*	*	*	*	*	*	*	*	*	*	*	*	*	*	*	*	*	*	*^	*	*	*	*	*	*	*	*	*
!	!	!	!	!	!	!	!	!LO:TX:a:t=2	!	!LO:TX:a:t=2.	!	!LO:TX:a:t=2.	!	!	!LO:TX:a:t=2.	!	!	!LO:TX:a:t=2.	!	!	!LO:TX:a:t=2.	!	!	!LO:TX:t=P:problem=brak b- przy kluczu	!	!	!	!	!	!	!	!	!	!
!LO:TX:a:i:t=[All]egro moderato	!	!LO:DY:rj	!LO:TX:a:i:t=Allegro moderato	!LO:DY:rj	!LO:TX:a:i:t=Allegro moderato	!LO:DY:rj	!	!LO:TX:a:i:t=Allegro moderato	!	!LO:TX:a:i:t=Allegro moderato	!	!LO:TX:a:i:t=Allegro moderato	!	!	!LO:TX:a:i:t=Allegro moderato	!	!	!LO:TX:a:i:t=Allegro moderato	!	!	!LO:TX:a:i:t=Allegro moderato	!	!	!LO:TX:a:i:t=Allegro moderato	!	!LO:DY:rj	!LO:TX:a:i:t=Allegro moderato	!LO:DY:t=f:rj	!LO:TX:a:i:t=Allegro moderato	!LO:DY:rj	!LO:TX:a:i:t=Allegro moderato	!LO:DY:rj	!LO:TX:a:i:t=Allegro moderato	!LO:DY:rj
4F\	8_ 5_ 3_	f	4a 4f/	f	(8ff\L	f	.	0r	.	0r	.	0r	.	.	0r	.	.	0r	.	.	1r	.	.	4ff/	4cc\	f	4A/	f	4f\	f	4a\	f	4ff\	f
.	.	.	.	.	8ee\)	.	.	.	.	.	.	.	.	.	.	.	.	.	.	.	.	.	.	.	.	.	.	.	.	.	.	.	.	.
4F\	.	.	4a 4f/	.	8ff'\	.	.	.	.	.	.	.	.	.	.	.	.	.	.	.	.	.	.	4ff/	4cc\	.	4A/	.	4f\	.	4a\	.	4ff\	.
.	.	.	.	.	8aa'\J	.	.	.	.	.	.	.	.	.	.	.	.	.	.	.	.	.	.	.	.	.	.	.	.	.	.	.	.	.
*	*	*	*	*	*2\right	*	*	*	*	*	*	*	*	*	*	*	*	*	*	*	*	*	*	*	*	*	*	*	*	*	*	*	*	*
*	*	*	*	*	*tremolo	*	*	*	*	*	*	*	*	*	*	*	*	*	*	*	*	*	*	*	*	*	*	*	*	*	*	*	*	*
!	!	!	!	!	!LO:TX:a:t=....	!	!	!	!	!	!	!	!	!	!	!	!	!	!	!	!	!	!	!	!	!	!	!	!	!	!	!	!	!
4r	.	.	4r	.	8cc'\L	.	.	.	.	.	.	.	.	.	.	.	.	.	.	.	.	.	.	4r	4ryy	.	4r	.	4r	.	4r	.	4r	.
.	.	.	.	.	8cc'\	.	.	.	.	.	.	.	.	.	.	.	.	.	.	.	.	.	.	.	.	.	.	.	.	.	.	.	.	.
4F\	.	.	4a 4f/	.	8cc'\	.	.	.	.	.	.	.	.	.	.	.	.	.	.	.	.	.	.	4ff/	4cc\	.	4A/	.	4f\	.	4a\	.	4ff\	.
.	.	.	.	.	8cc'\J	.	.	.	.	.	.	.	.	.	.	.	.	.	.	.	.	.	.	.	.	.	.	.	.	.	.	.	.	.
*	*	*	*	*	*Xtremolo	*	*	*	*	*	*	*	*	*	*	*	*	*	*	*	*	*	*	*	*	*	*	*	*	*	*	*	*	*
=2	=2	=2	=2	=2	=2	=2	=2	=2	=2	=2	=2	=2	=2	=2	=2	=2	=2	=2	=2	=2	=2	=2	=2	=2	=2	=2	=2	=2	=2	=2	=2	=2	=2	=2
4F\	.	.	4a 4f/	.	(8cc\L	.	.	.	.	.	.	.	.	.	.	.	.	.	.	.	1r	.	.	4ff/	4cc\	.	4A/	.	4f\	.	4a\	.	4ff\	.
.	.	.	.	.	8bn\)	.	.	.	.	.	.	.	.	.	.	.	.	.	.	.	.	.	.	.	.	.	.	.	.	.	.	.	.	.
4F\	.	.	4a 4f/	.	8cc'\	.	.	.	.	.	.	.	.	.	.	.	.	.	.	.	.	.	.	4ff/	4cc\	.	4A/	.	4f\	.	4a\	.	4cc\	.
.	.	.	.	.	8ff'\J	.	.	.	.	.	.	.	.	.	.	.	.	.	.	.	.	.	.	.	.	.	.	.	.	.	.	.	.	.
4r	.	.	4r	.	8cc'\L	.	.	.	.	.	.	.	.	.	.	.	.	.	.	.	.	.	.	4r	4ryy	.	4r	.	4r	.	4r	.	4r	.
.	.	.	.	.	8cc'\	.	.	.	.	.	.	.	.	.	.	.	.	.	.	.	.	.	.	.	.	.	.	.	.	.	.	.	.	.
4F\	.	.	4a 4f/	.	(8a\	.	.	.	.	.	.	.	.	.	.	.	.	.	.	.	.	.	.	4ff/	4cc\	.	4A/	.	4f\	.	4a\	.	4cc\	.
!	!	!	!	!	!	!	!	!	!	!	!	!	!	!	!	!	!	!	!	!	!	!	!LO:DY:b	!	!	!	!	!	!	!	!	!	!	!
.	.	.	.	.	8f\J)	.	.	.	.	.	.	.	.	.	.	.	.	.	.	.	.	.	f	.	.	.	.	.	.	.	.	.	.	.
=3	=3	=3	=3	=3	=3	=3	=3	=3	=3	=3	=3	=3	=3	=3	=3	=3	=3	=3	=3	=3	=3	=3	=3	=3	=3	=3	=3	=3	=3	=3	=3	=3	=3	=3
!	!	!	!	!	!LO:TX:t=P:problem=mixed beam	!	!	!	!	!	!	!	!	!LO:DY:b:rj	!	!	!LO:DY:rj:b	!	!	!LO:DY:rj:b	!	!	!	!	!	!	!	!	!	!	!	!	!	!
4C/	7_	.	8g/	.	8e'/L	.	.	4.C/	Ky-	4.c\	Ky-	4.g\	Ky-	f	4.b-\	Ky-	f	4.g\	Ky-	f	4.b-\	Ky-	.	4ee/	4cc\	.	1c	.	1g	.	1g	.	1b-	.
.	.	.	4b- 4g/	.	(8bb-X\	.	.	.	.	.	.	.	.	.	.	.	.	.	.	.	.	.	.	.	.	.	.	.	.	.	.	.	.	.
4C\	.	.	.	.	8gg\	.	.	.	.	.	.	.	.	.	.	.	.	.	.	.	.	.	.	8ee/L	8cc\L	.	.	.	.	.	.	.	.	.
.	.	.	4b- 4g/	.	8ee\J)	.	.	8C/	-ri-	8c\	-ri-	8g\	-ri-	.	8b-\	-ri-	.	8g\	-ri-	.	8b-\	-ri-	.	8ee/J	8cc\J	.	.	.	.	.	.	.	.	.
4E\	.	.	.	.	(8cc\L	.	.	4E\	-e	4c\	-e	4g\	-e	.	4b-\	-e	.	4g\	-e	.	4b-\	-e	.	4ee/	4cc\	.	.	.	.	.	.	.	.	.
.	.	.	4b- 4g/	.	8b-\)	.	.	.	.	.	.	.	.	.	.	.	.	.	.	.	.	.	.	.	.	.	.	.	.	.	.	.	.	.
4C\	.	.	.	.	(8g\	.	.	4C/	e-	4c\	e-	4g\	e-	.	4b-\	e-	.	4g\	e-	.	4b-\	e-	.	4ee/	4cc\	.	.	.	.	.	.	.	.	.
.	.	.	8b- 8g/	.	8cc\J)	.	.	.	.	.	.	.	.	.	.	.	.	.	.	.	.	.	.	.	.	.	.	.	.	.	.	.	.	.
=4	=4	=4	=4	=4	=4	=4	=4	=4	=4	=4	=4	=4	=4	=4	=4	=4	=4	=4	=4	=4	=4	=4	=4	=4	=4	=4	=4	=4	=4	=4	=4	=4	=4	=4
4C/	7	.	4g/	.	4b-\	.	.	4C/	-lei-	4c\	-lei-	4g\	-lei-	.	4b-\	-lei-	.	4g\	-lei-	.	4b-\	-lei-	.	4ee/	4cc\	.	4c/	.	4g\	.	4g/	.	4b-\	.
4FF/	3	.	4f/	.	4a\	.	.	4F\	-son	4c\	-son	4f\	-ſon	.	4a\	-ſon	.	4f\	-son	.	4a\	-son	.	4ff/	4cc\	.	4A/	.	4f\	.	4f/	.	4a\	.
!	!	!	!	!	!	!	!	!	!	!	!	!	!	!	!	!	!	!	!	!	!	!	!	!	!	!	!	!	!LO:N:vis=4	!	!	!	!	!
2r	.	.	8r	.	8r	.	.	2r	.	2r	.	2r	.	.	2r	.	.	2r	.	.	2r	.	.	2r	2ryy	.	2r	.	2r	.	2r	.	2r	.
.	.	.	8a/L	.	8cc\L	.	.	.	.	.	.	.	.	.	.	.	.	.	.	.	.	.	.	.	.	.	.	.	.	.	.	.	.	.
.	.	.	8b-/	.	8dd\	.	.	.	.	.	.	.	.	.	.	.	.	.	.	.	.	.	.	.	.	.	.	.	.	.	.	.	.	.
.	.	.	8g/J	.	8ee\J	.	.	.	.	.	.	.	.	.	.	.	.	.	.	.	.	.	.	.	.	.	.	.	.	.	.	.	.	.
!	!	!	!	!	!LO:LB:g=original	!	!	!	!	!	!	!	!	!	!	!	!	!	!	!	!	!	!	!	!	!	!	!	!	!	!	!	!	!
=5	=5	=5	=5	=5	=5	=5	=5	=5	=5	=5	=5	=5	=5	=5	=5	=5	=5	=5	=5	=5	=5	=5	=5	=5	=5	=5	=5	=5	=5	=5	=5	=5	=5	=5
!	!	!	!	!	!	!	!	!LO:TX:a:t=2.	!	!LO:TX:a:t=2.	!	!LO:TX:a:t=2.	!	!	!LO:TX:a:t=2	!	!	!LO:TX:a:t=2.	!	!	!LO:TX:a:t=2	!	!	!	!	!	!	!	!	!	!	!	!	!
4F\	8_ 5_ 3_	.	4a 4f/	.	(8ff\L	.	.	0r	.	0r	.	0r	.	.	0r	.	.	0r	.	.	0r	.	.	4ff/	4cc\	.	4A/	.	4f\	.	4a\	.	4ff\	.
.	.	.	.	.	8ee\)	.	.	.	.	.	.	.	.	.	.	.	.	.	.	.	.	.	.	.	.	.	.	.	.	.	.	.	.	.
4F\	.	.	4a 4f/	.	8ff'\	.	.	.	.	.	.	.	.	.	.	.	.	.	.	.	.	.	.	4ff/	4cc\	.	4A/	.	4f\	.	4a\	.	4ff\	.
.	.	.	.	.	8aa'\J	.	.	.	.	.	.	.	.	.	.	.	.	.	.	.	.	.	.	.	.	.	.	.	.	.	.	.	.	.
*	*	*	*	*	*tremolo	*	*	*	*	*	*	*	*	*	*	*	*	*	*	*	*	*	*	*	*	*	*	*	*	*	*	*	*	*
!	!	!	!	!	!LO:TX:a:t=....	!	!	!	!	!	!	!	!	!	!	!	!	!	!	!	!	!	!	!	!	!	!	!	!	!	!	!	!	!
4r	.	.	4r	.	8cc'\L	.	.	.	.	.	.	.	.	.	.	.	.	.	.	.	.	.	.	4r	4ryy	.	4r	.	4r	.	4r	.	4r	.
.	.	.	.	.	8cc'\	.	.	.	.	.	.	.	.	.	.	.	.	.	.	.	.	.	.	.	.	.	.	.	.	.	.	.	.	.
4F\	.	.	4a 4f/	.	8cc'\	.	.	.	.	.	.	.	.	.	.	.	.	.	.	.	.	.	.	4ff/	4cc\	.	4A/	.	4f\	.	4a\	.	4ff\	.
.	.	.	.	.	8cc'\J	.	.	.	.	.	.	.	.	.	.	.	.	.	.	.	.	.	.	.	.	.	.	.	.	.	.	.	.	.
*	*	*	*	*	*Xtremolo	*	*	*	*	*	*	*	*	*	*	*	*	*	*	*	*	*	*	*	*	*	*	*	*	*	*	*	*	*
!LO:LB:g=original	!	!	!LO:LB:g=original	!	!	!	!	!	!	!	!	!	!	!	!	!	!	!	!	!	!	!	!	!	!	!	!	!	!	!	!	!	!	!
=6	=6	=6	=6	=6	=6	=6	=6	=6	=6	=6	=6	=6	=6	=6	=6	=6	=6	=6	=6	=6	=6	=6	=6	=6	=6	=6	=6	=6	=6	=6	=6	=6	=6	=6
4F\	8_ 5_ 3_	.	4a 4f/	.	(8cc\L	.	.	.	.	.	.	.	.	.	.	.	.	.	.	.	.	.	.	4ff/	4cc\	.	4A/	.	4f\	.	4a\	.	4ff\	.
.	.	.	.	.	8bn\)	.	.	.	.	.	.	.	.	.	.	.	.	.	.	.	.	.	.	.	.	.	.	.	.	.	.	.	.	.
4F\	.	.	4a 4f/	.	8cc'\	.	.	.	.	.	.	.	.	.	.	.	.	.	.	.	.	.	.	4ff/	4cc\	.	4A/	.	4f\	.	4a\	.	4cc\	.
.	.	.	.	.	8ff'\J	.	.	.	.	.	.	.	.	.	.	.	.	.	.	.	.	.	.	.	.	.	.	.	.	.	.	.	.	.
4r	.	.	4r	.	8cc'\L	.	.	.	.	.	.	.	.	.	.	.	.	.	.	.	.	.	.	4r	4ryy	.	4r	.	4r	.	4r	.	4r	.
.	.	.	.	.	8cc'\	.	.	.	.	.	.	.	.	.	.	.	.	.	.	.	.	.	.	.	.	.	.	.	.	.	.	.	.	.
4F\	.	.	4a 4f/	.	(8a\	.	.	.	.	.	.	.	.	.	.	.	.	.	.	.	.	.	.	4ff/	4cc\	.	4A/	.	4f\	.	4a\	.	4cc\	.
.	.	.	.	.	8f\J)	.	.	.	.	.	.	.	.	.	.	.	.	.	.	.	.	.	.	.	.	.	.	.	.	.	.	.	.	.
!	!	!	!	!	!	!	!	!	!	!	!	!	!	!	!	!	!	!	!	!	!	!	!	!LO:LB:g=original	!	!	!	!	!	!	!	!	!	!
=7	=7	=7	=7	=7	=7	=7	=7	=7	=7	=7	=7	=7	=7	=7	=7	=7	=7	=7	=7	=7	=7	=7	=7	=7	=7	=7	=7	=7	=7	=7	=7	=7	=7	=7
*	*	*	*	*	*	*	*	*2\right	*	*2\right	*	*2\right	*	*	*2\right	*	*	*2\right	*	*	*2\right	*	*	*	*	*	*	*	*2\right	*	*	*	*2\right	*
!	!	!	!	!	!LO:TX:t=P:problem=mixed beam	!	!	!	!	!	!	!	!	!	!	!	!	!	!	!	!	!	!	!	!	!	!	!	!	!	!	!	!	!
4C\	7 5	.	8g/	.	8e'/L	.	.	2C\	Chri-	2c\	Chri-	2g\	Chri-	.	2b-\	Chri-	.	2g\	Chri-	.	2b-\	Chri-	.	4ee/	4cc\	.	2c/	.	2g\	.	2g/	.	2b-\	.
.	.	.	4b- 4g/	.	(8bb-X\	.	.	.	.	.	.	.	.	.	.	.	.	.	.	.	.	.	.	.	.	.	.	.	.	.	.	.	.	.
4C\	.	.	.	.	8gg\	.	.	.	.	.	.	.	.	.	.	.	.	.	.	.	.	.	.	8ee/L	8cc\L	.	.	.	.	.	.	.	.	.
.	.	.	8b- 8g/	.	8ee\J)	.	.	.	.	.	.	.	.	.	.	.	.	.	.	.	.	.	.	8ee/J	8cc\J	.	.	.	.	.	.	.	.	.
4F\	3	.	8a/L|	.	(8ff\L	.	.	4F\	-ste	4c\	-ste	4f\	-ste	.	4a\	-ste	.	4f\	-ste	.	4a\	-ste	.	4ff/	4cc\	.	4f\	.	4a\	.	4f/	.	4a\	.
.	.	.	(8a/	.	8cc\)	.	.	.	.	.	.	.	.	.	.	.	.	.	.	.	.	.	.	.	.	.	.	.	.	.	.	.	.	.
4A\	1	.	8g/)	.	8b-'\	.	.	4A\	e-	4c\	e-	4f\	e-	.	4a\	e-	.	4f\	e-	.	4a\	e-	.	4ff/	4cc\	.	4f\	.	4a\	.	4f/	.	4a\	.
.	.	.	8f/J|	.	8a'\J	.	.	.	.	.	.	.	.	.	.	.	.	.	.	.	.	.	.	.	.	.	.	.	.	.	.	.	.	.
!	!	!	!	!	!	!	!	!	!	!	!	!	!	!	!	!	!	!	!	!	!	!	!	!	!	!	!	!	!	!	!	!	!LO:LB:g=original	!
=8	=8	=8	=8	=8	=8	=8	=8	=8	=8	=8	=8	=8	=8	=8	=8	=8	=8	=8	=8	=8	=8	=8	=8	=8	=8	=8	=8	=8	=8	=8	=8	=8	=8	=8
4c\	6	.	4f/	.	4a/	.	.	4c\	-lei-	4c\	-lei-	4f\	-lei-	.	4a\	-lei-	.	4f\	-lei-	.	4a\	-lei-	.	4cc/	4cc\	.	4f\	.	4a\	.	4f/	.	4a\	.
4C/	5	.	4e/	.	4g/	.	.	4C/	-ſon	4c\	-son	4e\	-ſon	.	4g\	-ſon	.	4e\	-son	.	4g\	-son	.	4cc/	4cc\	.	4c/	.	4g\	.	4e/	.	4g\	.
2r	.	.	8r	.	8r	.	.	2r	.	2r	.	2r	.	.	2r	.	.	2r	.	.	2r	.	.	2r	2ryy	.	2r	.	2r	.	2r	.	2r	.
.	.	.	8e/L	.	8gg\L	.	.	.	.	.	.	.	.	.	.	.	.	.	.	.	.	.	.	.	.	.	.	.	.	.	.	.	.	.
.	.	.	8g/	.	8ee\	.	.	.	.	.	.	.	.	.	.	.	.	.	.	.	.	.	.	.	.	.	.	.	.	.	.	.	.	.
.	.	.	8e/J	.	8cc\J	.	.	.	.	.	.	.	.	.	.	.	.	.	.	.	.	.	.	.	.	.	.	.	.	.	.	.	.	.
!	!	!	!	!	!	!	!	!LO:LB:g=original	!	!LO:LB:g=original	!	!LO:LB:g=original	!	!	!LO:DY:rj	!	!	!LO:LB:g=original	!	!	!LO:LB:g=original	!	!	!	!	!	!LO:LB:g=original	!	!	!	!LO:LB:g=original	!	!	!
=9	=9	=9	=9	=9	=9	=9	=9	=9	=9	=9	=9	=9	=9	=9	=9	=9	=9	=9	=9	=9	=9	=9	=9	=9	=9	=9	=9	=9	=9	=9	=9	=9	=9	=9
*	*	*	*tremolo	*	*	*	*	*	*	*	*	*	*	*	*	*	*	*	*	*	*	*	*	*	*	*	*	*	*	*	*	*	*	*
!	!	!	!LO:TX:b:t=....	!	!	!	!	!	!	!	!	!	!	!	!	!	!	!	!	!	!	!	!	!	!	!	!	!	!	!	!	!	!	!
4F\	#4r	.	8g'/L	.	4bn\	.	.	(4F\	Chri-	(4d\	Chri-	2g\	Chri-	.	(4bn\	Chri-	.	2g\	Chri-	.	(4bn\	Chri-	.	4g/	4g\	.	1g	.	1g	.	2g/	.	4bX\	.
.	.	.	8g'/	.	.	.	.	.	.	.	.	.	.	.	.	.	.	.	.	.	.	.	.	.	.	.	.	.	.	.	.	.	.	.
4E\	6	.	8g'/	.	4ccT\	.	.	4E\)	.	4c\)	.	.	.	.	4cc\)	.	.	.	.	.	4cc\)	.	.	8g/L	8g\L	.	.	.	.	.	.	.	4cc\	.
.	.	.	8g'/J	.	.	.	.	.	.	.	.	.	.	.	.	.	.	.	.	.	.	.	.	8g/J	8g\J	.	.	.	.	.	.	.	.	.
4D\	8	.	8g/L	.	4dd\	.	.	(4D\	-ste	(4Bn\	-ste	2g\	-ste	.	(4dd\	-ste	.	2g\	-ste	.	(4dd\	-ste	.	4g/	4g\	.	.	.	.	.	4bX\	.	4dd\	.
.	.	.	8g/	.	.	.	.	.	.	.	.	.	.	.	.	.	.	.	.	.	.	.	.	.	.	.	.	.	.	.	.	.	.	.
4C\	10	.	8g/	.	4eet\	.	.	4C\)	.	4c\)	.	.	.	.	4ee\)	.	.	.	.	.	4ee\)	.	.	4g/	4g\	.	.	.	.	.	4cc\	.	4ee\	.
.	.	.	8g/J	.	.	.	.	.	.	.	.	.	.	.	.	.	.	.	.	.	.	.	.	.	.	.	.	.	.	.	.	.	.	.
!	!	!	!	!	!	!	!	!	!	!	!	!	!	!	!	!	!	!	!	!	!	!	!	!	!	!	!	!	!LO:LB:g=original	!	!	!	!	!
*	*	*	*Xtremolo	*	*	*	*	*	*	*	*	*	*	*	*	*	*	*	*	*	*	*	*	*	*	*	*	*	*	*	*	*	*	*
=10	=10	=10	=10	=10	=10	=10	=10	=10	=10	=10	=10	=10	=10	=10	=10	=10	=10	=10	=10	=10	=10	=10	=10	=10	=10	=10	=10	=10	=10	=10	=10	=10	=10	=10
*	*	*	*	*	*	*	*	*	*	*	*	*	*	*	*	*	*	*	*	*	*	*	*	*2\right	*	*	*2\right	*	*	*	*	*	*	*
8BBn/L	6	.	(8g/L	.	4.gg\	.	.	4.BBn/	au-	4.d\	au-	4.g\	au-	.	4.gg\	au-	.	4.g\	au-	.	4.gg\	au-	.	2dd/	2g\	.	2g\	.	2g\	.	4.bX\	.	4.gg\	.
8GG/	.	.	8G/)	.	.	.	.	.	.	.	.	.	.	.	.	.	.	.	.	.	.	.	.	.	.	.	.	.	.	.	.	.	.	.
8AA/	5	.	8g'/	.	.	.	.	.	.	.	.	.	.	.	.	.	.	.	.	.	.	.	.	.	.	.	.	.	.	.	.	.	.	.
8BB/J	.	.	8g'/J	.	8ff\	.	.	8BB/	-di	8d\	-di	8g\	-di	.	8ff\	-di	.	8g\	-di	.	8ff\	-di	.	.	.	.	.	.	.	.	8dd\	.	8ff\	.
4C/	3	.	4g/	.	4ee\	.	.	4C/	nos	4c\	nos	4g\	nos	.	4ee\	nos	.	4g\	nos	.	4ee\	nos	.	4ee/	4cc\	.	4c/	.	4g\	.	4cc\	.	4ee\	.
4E\	6	.	4r	.	4cc\	.	.	4r	.	4r	.	4r	.	.	4r	.	.	4r	.	.	4r	.	.	4r	4ryy	.	4r	.	4r	.	4r	.	4r	.
!	!	!	!	!	!LO:LB:g=original	!	!	!	!	!	!	!	!	!	!	!	!	!	!	!	!	!	!	!	!	!	!	!	!	!	!	!	!	!
=11	=11	=11	=11	=11	=11	=11	=11	=11	=11	=11	=11	=11	=11	=11	=11	=11	=11	=11	=11	=11	=11	=11	=11	=11	=11	=11	=11	=11	=11	=11	=11	=11	=11	=11
*	*	*	*tremolo	*	*	*	*	*	*	*	*	*	*	*	*	*	*	*	*	*	*	*	*	*	*	*	*	*	*	*	*	*	*	*
!	!	!	!LO:TX:b:t=....	!	!	!	!	!	!	!	!	!	!	!	!	!	!	!	!	!	!	!	!	!	!	!	!	!	!	!	!	!	!	!
4F\	#4r	.	8g'/L	.	4bn\	.	.	(4F\	Chri-	(4d\	Chri-	2g\	Chri-	.	(4bn\	Chri-	.	2g\	Chri-	.	(4bn\	Chri-	.	4g/	4g\	.	1g	.	1g	.	2g/	.	4bX\	.
.	.	.	8g'/	.	.	.	.	.	.	.	.	.	.	.	.	.	.	.	.	.	.	.	.	.	.	.	.	.	.	.	.	.	.	.
4E\	6	.	8g'/	.	4ccT\	.	.	4E\)	.	4c\)	.	.	.	.	4cc\)	.	.	.	.	.	4cc\)	.	.	8g/L	8g\L	.	.	.	.	.	.	.	4cc\	.
.	.	.	8g'/J	.	.	.	.	.	.	.	.	.	.	.	.	.	.	.	.	.	.	.	.	8g/J	8g\J	.	.	.	.	.	.	.	.	.
!	!	!	!LO:TX:b:t=....	!	!	!	!	!	!	!	!	!	!	!	!	!	!	!	!	!	!	!	!	!	!	!	!	!	!	!	!	!	!	!
4D\	8	.	8g'/L	.	4dd\	.	.	4D\	-ste	4Bn\	-ste	4g\	-ſte	.	4dd\	-ste	.	4g\	-ste	.	4dd\	-ste	.	4g/	4g\	.	.	.	.	.	4bX\	.	4dd\	.
.	.	.	8g'/	.	.	.	.	.	.	.	.	.	.	.	.	.	.	.	.	.	.	.	.	.	.	.	.	.	.	.	.	.	.	.
4C\	10	.	8g'/	.	4eet\	.	.	4C/	ex-	4c\	ex-	4g\	ex-	.	4ee\	ex-	.	4g\	ex-	.	4ee\	ex-	.	4g/	4g\	.	.	.	.	.	4cc\	.	4ee\	.
.	.	.	8g'/J	.	.	.	.	.	.	.	.	.	.	.	.	.	.	.	.	.	.	.	.	.	.	.	.	.	.	.	.	.	.	.
*	*	*	*Xtremolo	*	*	*	*	*	*	*	*	*	*	*	*	*	*	*	*	*	*	*	*	*	*	*	*	*	*	*	*	*	*	*
!LO:LB:g=original	!	!	!	!	!	!	!	!	!	!	!	!	!	!	!	!	!	!	!	!	!	!	!	!	!	!	!	!	!	!	!	!	!	!
=12	=12	=12	=12	=12	=12	=12	=12	=12	=12	=12	=12	=12	=12	=12	=12	=12	=12	=12	=12	=12	=12	=12	=12	=12	=12	=12	=12	=12	=12	=12	=12	=12	=12	=12
8BBn/L	6_	.	(8g/L	.	4.gg\	.	.	4.BBn/	-au-	4.d\	-au-	4.g\	-au-	.	4.gg\	-au-	.	4.g\	-au-	.	4.gg\	-au-	.	2dd/	2g\	.	2g\	.	2g\	.	4.bX\	.	4.gg\	.
8GG/	.	.	8G/)	.	.	.	.	.	.	.	.	.	.	.	.	.	.	.	.	.	.	.	.	.	.	.	.	.	.	.	.	.	.	.
8AA/	.	.	8g'/	.	.	.	.	.	.	.	.	.	.	.	.	.	.	.	.	.	.	.	.	.	.	.	.	.	.	.	.	.	.	.
8BB/J	5	.	8g'/J	.	8ff\	.	.	8BB/	-di	8d\	-di	8g\	-di	.	8ff\	-di	.	8g\	-di	.	8ff\	-di	.	.	.	.	.	.	.	.	8dd\	.	8ff\	.
4C/	3	.	4g/	.	4ee\	.	.	4C/	nos	4c\	nos	4g\	nos	.	4ee\	nos	.	4g\	nos	.	4ee\	nos	.	4ee/	4cc\	.	4c/	.	4g\	.	4cc\	.	4ee\	.
4E\	6	.	4e/	.	4cc\	.	.	4E\	Chri-	4c\	Chri-	4g\	Chri-	.	4cc\	Chri-	.	4g\	Chri-	.	4cc\	Chri-	.	4r	4ryy	.	4r	.	4r	.	4g/	.	4cc\	.
!	!	!	!LO:LB:g=original	!	!	!	!	!	!	!	!	!	!	!	!	!	!	!	!	!	!	!	!	!	!	!	!	!	!	!	!	!	!	!
=13	=13	=13	=13	=13	=13	=13	=13	=13	=13	=13	=13	=13	=13	=13	=13	=13	=13	=13	=13	=13	=13	=13	=13	=13	=13	=13	=13	=13	=13	=13	=13	=13	=13	=13
4F\	6 3	.	(8e/L	.	(8cc#X\L	.	.	4F\	-ste	4A\	-ste	4f\	-ste	.	4dd\	-ste	.	4f\	-ste	.	4dd\	-ste	.	2r	2ryy	.	2f\	.	2a\	.	2f/	.	2dd\	.
.	.	.	8f/)	.	8dd\)	.	.	.	.	.	.	.	.	.	.	.	.	.	.	.	.	.	.	.	.	.	.	.	.	.	.	.	.	.
4F\	.	.	8a'/	.	8ff'\	.	.	4F\	ex-	4f\	ex-	4f\	ex-	.	4dd\	ex-	.	4f\	ex-	.	4dd\	ex-	.	.	.	.	.	.	.	.	.	.	.	.
.	.	.	8f'/J	.	8dd'\J	.	.	.	.	.	.	.	.	.	.	.	.	.	.	.	.	.	.	.	.	.	.	.	.	.	.	.	.	.
!	!	!	!	!	!LO:SIC:v:s=4ccn\	!	!	!	!	!	!	!	!	!	!LO:DY:rj	!	!	!	!	!	!LO:LB:g=original	!	!	!	!	!	!	!	!	!	!	!	!	!
4G\	4	.	4e/	.	4cc#\	.	.	4G\	-au-	4e\	-au-	4e\	-au-	.	4cc\	-au-	.	4e\	-au-	.	4cc\	-au-	.	4ee/	4cc\	.	4g\	.	4g\	.	4e/	.	4cc\	.
4GG/	n	.	4d/	.	4bn\	.	.	4GG/	-di	4d\	-di	4g\	-di	.	4bn\	-di	.	4g\	-di	.	4bn\	-di	.	4dd/	4g\	.	4g\	.	4g\	.	4d/	.	4bX\	.
!	!	!	!	!	!	!	!	!LO:LB:g=original	!	!LO:LB:g=original	!	!LO:LB:g=original	!	!	!	!	!	!LO:LB:g=original	!	!	!	!	!	!LO:LB:g=original	!	!	!	!	!	!	!	!	!	!
=14	=14	=14	=14	=14	=14	=14	=14	=14	=14	=14	=14	=14	=14	=14	=14	=14	=14	=14	=14	=14	=14	=14	=14	=14	=14	=14	=14	=14	=14	=14	=14	=14	=14	=14
4C/|>	.	.	4e/	.	4cc\	.	.	2C/	nos	2e\	nos	2g\	nos	.	2cc\	nos	.	2g\	nos	.	2cc\	nos	.	4cc/	4e\	.	4c/	.	4g\	.	4e/	.	4cc\	.
4C/|>	.	.	4e/	.	4c/	.	.	.	.	.	.	.	.	.	.	.	.	.	.	.	.	.	.	4cc/	4c\	.	4c/	.	4g\	.	4e/	.	4cc\	.
!	!	!	!	!	!	!	!	!	!	!	!	!	!	!	!LO:TX:a:i:t=Solo	!	!	!	!	!	!LO:TX:a:i:t=Solo	!	!	!	!	!	!	!	!	!	!	!	!	!
8G\L|	.	.	2r	.	2r	.	.	2r	.	2r	.	2r	.	.	2r	.	.	2r	.	.	2r	.	.	2r	2ryy	.	2r	.	2r	.	2r	.	2r	.
8F\|	.	.	.	.	.	.	.	.	.	.	.	.	.	.	.	.	.	.	.	.	.	.	.	.	.	.	.	.	.	.	.	.	.	.
8E\|	.	.	.	.	.	.	.	.	.	.	.	.	.	.	.	.	.	.	.	.	.	.	.	.	.	.	.	.	.	.	.	.	.	.
8D\J|	.	.	.	p	.	.	.	.	.	.	.	.	.	.	.	.	.	.	.	.	.	.	.	.	.	.	.	.	.	.	.	.	.	.
*	*	*	*	*	*	*	*	*	*	*	*	*	*	*	*	*	*	*	*	*	*	*	*	*v	*v	*	*	*	*	*	*	*	*	*
=15	=15	=15	=15	=15	=15	=15	=15	=15	=15	=15	=15	=15	=15	=15	=15	=15	=15	=15	=15	=15	=15	=15	=15	=15	=15	=15	=15	=15	=15	=15	=15	=15	=15
!LO:TX:a:i:t=Tasto	!	!LO:DY:rj	!	!	!	!	!	!LO:TX:a:t=2.	!	!LO:TX:a:t=2.	!	!LO:TX:a:t=2.	!	!	!	!	!	!LO:TX:a:t=2	!	!	!	!	!	!LO:TX:a:t=2	!	!LO:TX:a:t=2	!	!LO:TX:a:t=2	!	!LO:TX:a:t=2.	!	!LO:TX:a:t=2	!
4C/	.	p	4e/	.	4g/	p	.	0r	.	0r	.	0r	.	.	4g\	Pa-	.	0r	.	.	4g\	Pa-	.	0r	.	0r	.	0r	.	0r	.	0r	.
4C/	.	.	4e/	.	4g/	.	.	.	.	.	.	.	.	.	8g\	-ter	.	.	.	.	8g\	-ter	.	.	.	.	.	.	.	.	.	.	.
.	.	.	.	.	.	.	.	.	.	.	.	.	.	.	8g\	de	.	.	.	.	8g\	de	.	.	.	.	.	.	.	.	.	.	.
4r	.	.	8r	.	8r	.	.	.	.	.	.	.	.	.	8g\L	coe-	.	.	.	.	8g\L	coe-	.	.	.	.	.	.	.	.	.	.	.
.	.	.	8g/L	.	8ee\L	.	.	.	.	.	.	.	.	.	8ee\J	.	.	.	.	.	8ee\J	.	.	.	.	.	.	.	.	.	.	.	.
4C/	.	.	8f/	.	8dd\	.	.	.	.	.	.	.	.	.	8dd\L	-lis	.	.	.	.	8dd\L	-lis	.	.	.	.	.	.	.	.	.	.	.
.	.	.	8e/J	.	8cc\J	.	.	.	.	.	.	.	.	.	8cc\J	.	.	.	.	.	8cc\J	.	.	.	.	.	.	.	.	.	.	.	.
=16	=16	=16	=16	=16	=16	=16	=16	=16	=16	=16	=16	=16	=16	=16	=16	=16	=16	=16	=16	=16	=16	=16	=16	=16	=16	=16	=16	=16	=16	=16	=16	=16	=16
4G\	.	.	4e/	.	4cc\	.	.	.	.	.	.	.	.	.	4cc\	De-	.	.	.	.	4cc\	De-	.	.	.	.	.	.	.	.	.	.	.
4GG/	.	.	4d/	.	4bn\	.	.	.	.	.	.	.	.	.	4bn\	-us	.	.	.	.	4bn\	-us	.	.	.	.	.	.	.	.	.	.	.
8D/L|	.	.	2r	.	2r	.	.	.	.	.	.	.	.	.	2r	.	.	.	.	.	2r	.	.	.	.	.	.	.	.	.	.	.	.
8C/|	.	.	.	.	.	.	.	.	.	.	.	.	.	.	.	.	.	.	.	.	.	.	.	.	.	.	.	.	.	.	.	.	.
8BBn/|	.	.	.	.	.	.	.	.	.	.	.	.	.	.	.	.	.	.	.	.	.	.	.	.	.	.	.	.	.	.	.	.	.
!	!	!	!	!	!	!	!	!	!	!	!	!	!	!	!	!	!LO:DY:b	!	!	!	!	!	!LO:DY:b	!	!	!	!	!	!	!	!	!	!
8AA/J|	.	.	.	f	.	.	.	.	.	.	.	.	.	.	.	.	f	.	.	.	.	.	f	.	.	.	.	.	.	.	.	.	.
!LO:LB:g=original	!	!	!	!	!LO:LB:g=original	!	!	!	!	!	!	!	!	!	!	!	!	!	!	!	!	!	!	!	!	!	!	!	!	!	!	!	!
=17	=17	=17	=17	=17	=17	=17	=17	=17	=17	=17	=17	=17	=17	=17	=17	=17	=17	=17	=17	=17	=17	=17	=17	=17	=17	=17	=17	=17	=17	=17	=17	=17	=17
*	*	*	*	*	*	*	*	*	*	*	*	*	*	*	*	*	*	*	*	*	*	*	*	*^	*	*	*	*	*	*	*	*	*
*	*	*	*	*	*	*	*	*	*	*	*	*	*	*	*	*	*	*	*	*	*	*	*	*	*	*	*	*	*	*	*2\right	*	*	*
!	!	!LO:DY:rj:t=f	!	!	!	!	!	!	!	!	!	!	!	!	!LO:TX:a:i:t=Tutti:rj	!	!	!	!	!	!LO:TX:a:i:t=Tutti	!	!	!	!	!	!	!	!	!	!	!	!	!
4GG/	7_	f	8bn 8d/	.	(8gg\L	f	.	4.G\	mi-	4.d\	mi-	4.bn\	mi-	.	4.ff\	mi-	.	4.bn\	mi-	.	4.ff\	mi-	.	4dd/	4g\	.	2g\	.	2g\	.	2dd\	.	2ff\	.
.	.	.	4b 4d/	.	8fff\)	.	.	.	.	.	.	.	.	.	.	.	.	.	.	.	.	.	.	.	.	.	.	.	.	.	.	.	.	.
4BBn/	.	.	.	.	8ddd'\	.	.	.	.	.	.	.	.	.	.	.	.	.	.	.	.	.	.	8dd/L	8g\L	.	.	.	.	.	.	.	.	.
.	.	.	4b 4d/	.	8bbn'\J	.	.	8G\	-se-	8d\	-se-	8b\	-ſe-	.	8ff\	-se-	.	8b\	-se-	.	8ff\	-se-	.	8dd/J	8g\J	.	.	.	.	.	.	.	.	.
4D\	.	.	.	.	(8gg\L	.	.	4G\	-re-	4d\	-re-	4b\	-re-	.	4ff\	-re-	.	4b\	-re-	.	4ff\	-re-	.	4dd/	4g\	.	4g\	.	4g\	.	4dd\	.	4ff\	.
.	.	.	4b 4d/	.	8ff\)	.	.	.	.	.	.	.	.	.	.	.	.	.	.	.	.	.	.	.	.	.	.	.	.	.	.	.	.	.
4G\	.	.	.	.	8dd'\	.	.	4G\	-re	4d\	-re	4b\	-re	.	4ff\	-re	.	4b\	-re	.	4ff\	-re	.	4dd/	4g\	.	4g\	.	4g\	.	4dd\	.	4ff\	.
.	.	.	8b 8d/	.	8gg'\J	.	.	.	.	.	.	.	.	.	.	.	.	.	.	.	.	.	.	.	.	.	.	.	.	.	.	.	.	.
!	!	!	!	!	!	!	!	!	!	!	!	!	!	!	!LO:DY:rj	!	!	!	!	!	!LO:LB:g=original	!	!	!	!	!	!	!	!	!	!	!	!LO:LB:g=original	!
=18	=18	=18	=18	=18	=18	=18	=18	=18	=18	=18	=18	=18	=18	=18	=18	=18	=18	=18	=18	=18	=18	=18	=18	=18	=18	=18	=18	=18	=18	=18	=18	=18	=18	=18
.	.	.	.	.	8qqgg	.	.	.	.	.	.	.	.	.	.	.	.	.	.	.	.	.	.	.	.	.	.	.	.	.	.	.	.	.
4c\	4	.	4dd\	.	4ff\	.	.	4c\	no-	4d\	no-	4g\	no-	.	4ff\	no-	.	4g\	no-	.	4ff\	no-	.	4dd/	4g\	.	4g\	.	4g\	.	4dd\	.	4ff\	.
4C/	3	.	4cc\	.	4ee\	.	.	4C/	-bis	4c\	-bis	4g\	-bis	.	4ee\	-bis	.	4g\	-bis	.	4ee\	-bis	.	4cc/	4e\	.	4c/	.	4g\	.	4cc\	.	4ee\	.
8G\L|	.	.	2r	.	2r	.	.	2r	.	2r	.	2r	.	.	2r	.	.	2r	.	.	2r	.	.	2r	2ryy	.	2r	.	2r	.	2r	.	2r	.
8F\|	.	.	.	.	.	.	.	.	.	.	.	.	.	.	.	.	.	.	.	.	.	.	.	.	.	.	.	.	.	.	.	.	.	.
8E\|	.	.	.	.	.	.	.	.	.	.	.	.	.	.	.	.	.	.	.	.	.	.	.	.	.	.	.	.	.	.	.	.	.	.
8D\J|	.	.	.	p	.	.	.	.	.	.	.	.	.	.	.	.	.	.	.	.	.	.	.	.	.	.	.	.	.	.	.	.	.	.
*	*	*	*	*	*	*	*	*	*	*	*	*	*	*	*	*	*	*	*	*	*	*	*	*v	*v	*	*	*	*	*	*	*	*	*
=19	=19	=19	=19	=19	=19	=19	=19	=19	=19	=19	=19	=19	=19	=19	=19	=19	=19	=19	=19	=19	=19	=19	=19	=19	=19	=19	=19	=19	=19	=19	=19	=19	=19
!LO:TX:a:i:t=Tasto	!	!LO:DY:rj:t=p	!	!	!	!LO:DY:rj:t=p	!	!LO:TX:a:t=2.	!	!LO:TX:a:t=2	!	!LO:TX:a:t=2	!	!	!LO:TX:a:i:t=Solo:rj	!	!	!LO:TX:a:t=2.	!	!	!LO:TX:a:i:t=Solo:rj	!	!	!LO:TX:a:t=2.	!	!LO:TX:a:t=2	!	!LO:TX:a:t=2	!	!LO:TX:a:t=2	!	!LO:TX:a:t=2.	!
4C/	.	p	4e/	.	4g/	p	.	0r	.	0r	.	0r	.	.	4g\	Fi-	.	0r	.	.	4g\	Fi-	.	0r	.	0r	.	0r	.	0r	.	0r	.
4C/	.	.	4e/	.	4g/	.	.	.	.	.	.	.	.	.	8g\	-li	.	.	.	.	8g\	-li	.	.	.	.	.	.	.	.	.	.	.
.	.	.	.	.	.	.	.	.	.	.	.	.	.	.	8g\	Re-	.	.	.	.	8g\	Re-	.	.	.	.	.	.	.	.	.	.	.
4r	.	.	8r	.	8r	.	.	.	.	.	.	.	.	.	8g\	-dem-	.	.	.	.	8g\	-dem-	.	.	.	.	.	.	.	.	.	.	.
.	.	.	8g/L	.	8ee\L	.	.	.	.	.	.	.	.	.	8ee\	-ptor	.	.	.	.	8ee\	-ptor	.	.	.	.	.	.	.	.	.	.	.
4C/	.	.	8f/	.	8dd\	.	.	.	.	.	.	.	.	.	8dd\	mun-	.	.	.	.	8dd\	mun-	.	.	.	.	.	.	.	.	.	.	.
.	.	.	8e/J	.	8cc\J	.	.	.	.	.	.	.	.	.	8cc\	-di	.	.	.	.	8cc\	-di	.	.	.	.	.	.	.	.	.	.	.
!	!	!	!LO:LB:g=original	!	!	!	!	!	!	!	!	!	!	!	!	!	!	!	!	!	!	!	!	!	!	!	!	!	!	!	!	!	!
=20	=20	=20	=20	=20	=20	=20	=20	=20	=20	=20	=20	=20	=20	=20	=20	=20	=20	=20	=20	=20	=20	=20	=20	=20	=20	=20	=20	=20	=20	=20	=20	=20	=20
4G\	.	.	4e/	.	4cc\	.	.	.	.	.	.	.	.	.	4cc\	De-	.	.	.	.	4cc\	De-	.	.	.	.	.	.	.	.	.	.	.
4GG/	.	.	4d/	.	4bn\	.	.	.	.	.	.	.	.	.	4bn\	-us	.	.	.	.	4bn\	-us	.	.	.	.	.	.	.	.	.	.	.
8D/L|	.	.	2r	.	2r	.	.	.	.	.	.	.	.	.	2r	.	.	.	.	.	2r	.	.	.	.	.	.	.	.	.	.	.	.
8C/|	.	.	.	.	.	.	.	.	.	.	.	.	.	.	.	.	.	.	.	.	.	.	.	.	.	.	.	.	.	.	.	.	.
8BBn/|	.	.	.	.	.	.	.	.	.	.	.	.	.	.	.	.	.	.	.	.	.	.	.	.	.	.	.	.	.	.	.	.	.
!	!	!	!	!	!	!	!	!	!	!	!	!	!	!	!	!	!LO:DY:b	!	!	!	!	!	!	!	!	!	!	!	!	!	!	!	!
8AA/J|	.	.	.	f	.	f	.	.	.	.	.	.	.	.	.	.	f	.	.	.	.	.	.	.	.	.	.	.	.	.	.	.	.
!	!	!	!	!	!	!	!	!	!	!	!	!	!	!	!	!	!	!	!	!	!	!	!	!	!	!	!	!	!	!LO:LB:g=original	!	!	!
=21	=21	=21	=21	=21	=21	=21	=21	=21	=21	=21	=21	=21	=21	=21	=21	=21	=21	=21	=21	=21	=21	=21	=21	=21	=21	=21	=21	=21	=21	=21	=21	=21	=21
*	*	*	*	*	*	*	*	*	*	*	*	*	*	*	*	*	*	*	*	*	*	*	*	*^	*	*	*	*	*	*	*	*	*
!	!	!LO:DY:rj	!	!	!	!	!	!	!	!	!	!	!	!	!LO:TX:a:i:t=Tutti:rj	!	!	!	!	!	!LO:TX:a:i:t=Tutti:rj	!	!	!	!	!	!	!	!	!	!	!	!	!
4GG/	7_	f	8bn 8d/	.	(8gg\L	.	2	4.G\	mi-	4.d\	mi-	4.bn\	mi-	.	4.ff\	mi-	.	4.bn\	mi-	.	4.ff\	mi-	.	4dd/	4g\	.	2g\	.	2g\	.	2dd\	.	2ff\	.
.	.	.	4b 4d/	.	8fff\)	.	4	.	.	.	.	.	.	.	.	.	.	.	.	.	.	.	.	.	.	.	.	.	.	.	.	.	.	.
4BBn/	.	.	.	.	8ddd'\	.	3	.	.	.	.	.	.	.	.	.	.	.	.	.	.	.	.	8dd/L	8g\L	.	.	.	.	.	.	.	.	.
.	.	.	4b 4d/	.	8bbn'\J	.	1	8G\	-se-	8d\	-se-	8b\	-ſe-	.	8ff\	-se-	.	8b\	-se-	.	8ff\	-se-	.	8dd/J	8g\J	.	.	.	.	.	.	.	.	.
!	!	!	!	!	!	!	!	!	!	!	!	!	!	!	!LO:LB:g=original	!	!	!	!	!	!	!	!	!	!	!	!	!	!	!	!	!	!	!
4D/	.	.	.	.	(8gg\L	.	3	4G\	-re-	4d\	-re-	4b\	-re-	.	4ff\	-re-	.	4b\	-re-	.	4ff\	-re-	.	4dd/	4g\	.	4g\	.	4g\	.	4dd\	.	4ff\	.
.	.	.	4b 4d/	.	8ff\)	.	2	.	.	.	.	.	.	.	.	.	.	.	.	.	.	.	.	.	.	.	.	.	.	.	.	.	.	.
4G\	.	.	.	.	8dd'\	.	1	4G\	-re	4d\	-re	4b\	-re	.	4ff\	-re	.	4b\	-re	.	4ff\	-re	.	4dd/	4g\	.	4g\	.	4g\	.	4dd\	.	4ff\	.
.	.	.	8b 8d/	.	8gg'\J	.	4	.	.	.	.	.	.	.	.	.	.	.	.	.	.	.	.	.	.	.	.	.	.	.	.	.	.	.
!	!	!	!	!	!	!	!	!	!	!	!	!	!	!	!	!	!	!	!	!	!LO:LB:g=original	!	!	!	!	!	!	!	!	!	!	!	!	!
=22	=22	=22	=22	=22	=22	=22	=22	=22	=22	=22	=22	=22	=22	=22	=22	=22	=22	=22	=22	=22	=22	=22	=22	=22	=22	=22	=22	=22	=22	=22	=22	=22	=22	=22
4c\	4	.	4dd\	.	4ff\	.	.	4c\	no-	4d\	no-	4g\	no-	.	4ff\	no-	.	4g\	no-	.	4ff\	no-	.	4dd/	4g\	.	4g\	.	4g\	.	4dd\	.	4ff\	.
4C/	3	.	4cc\	.	4ee\	.	.	4C/	-bis	4c\	-bis	4g\	-bis	.	4ee\	-bis	.	4g\	-bis	.	4ee\	-bis	.	4cc/	4e\	.	4c/	.	4g\	.	4cc\	.	4ee\	.
4r	.	.	8r	.	8r	.	.	2r	.	2r	.	2r	.	.	2r	.	.	2r	.	.	2r	.	.	2r	2ryy	.	2r	.	2r	.	2r	.	2r	.
.	.	.	8cc\L	.	8ee\L	.	.	.	.	.	.	.	.	.	.	.	.	.	.	.	.	.	.	.	.	.	.	.	.	.	.	.	.	.
4C/	5	.	8dd\	.	8ff\	.	.	.	.	.	.	.	.	.	.	.	.	.	.	.	.	.	.	.	.	.	.	.	.	.	.	.	.	.
.	.	.	8ee\J	.	8gg\J	.	.	.	.	.	.	.	.	.	.	.	.	.	.	.	.	.	.	.	.	.	.	.	.	.	.	.	.	.
!LO:LB:g=original	!	!	!	!	!LO:LB:g=original	!	!	!LO:LB:g=original	!	!LO:LB:g=original	!	!LO:LB:g=original	!	!	!	!	!	!LO:LB:g=original	!	!	!	!	!	!	!	!	!LO:LB:g=original	!	!LO:LB:g=original	!	!	!	!	!
=23	=23	=23	=23	=23	=23	=23	=23	=23	=23	=23	=23	=23	=23	=23	=23	=23	=23	=23	=23	=23	=23	=23	=23	=23	=23	=23	=23	=23	=23	=23	=23	=23	=23	=23
4F\	10_	.	(8ff\L	.	(8aa\L	.	.	2F\	mi-	2f\	mi-	2cc\	mi-	.	2aa\	mi-	.	2cc\	mi-	.	2aa\	mi-	.	4cc/	4c\	.	2f\	.	2a\	.	2ff\	.	2aa\	.
.	.	.	8cc\)	.	8gg\)	.	.	.	.	.	.	.	.	.	.	.	.	.	.	.	.	.	.	.	.	.	.	.	.	.	.	.	.	.
4f\	.	.	8cc'\	.	8ff'\	.	.	.	.	.	.	.	.	.	.	.	.	.	.	.	.	.	.	4r	4ryy	.	.	.	.	.	.	.	.	.
.	.	.	8cc'\J	.	8aa'\J	.	.	.	.	.	.	.	.	.	.	.	.	.	.	.	.	.	.	.	.	.	.	.	.	.	.	.	.	.
*	*	*	*2\right	*	*	*	*	*	*	*	*	*	*	*	*	*	*	*	*	*	*	*	*	*	*	*	*	*	*	*	*	*	*	*
*	*	*	*tremolo	*	*	*	*	*	*	*	*	*	*	*	*	*	*	*	*	*	*	*	*	*	*	*	*	*	*	*	*	*	*	*
4E\	10	.	8cc\L	.	(8gg\L	.	.	2E\	-se-	2e\	-se-	2cc\	-ſe-	.	2gg\	-se-	.	2cc\	-se-	.	2gg\	-se-	.	4cc/	4c\	.	2c/	.	2g\	.	2ee\	.	2gg\	.
.	.	.	8cc\	.	8ff\)	.	.	.	.	.	.	.	.	.	.	.	.	.	.	.	.	.	.	.	.	.	.	.	.	.	.	.	.	.
4e\	.	.	8cc\	.	8ee'\	.	.	.	.	.	.	.	.	.	.	.	.	.	.	.	.	.	.	4r	4ryy	.	.	.	.	.	.	.	.	.
.	.	.	8cc\J	.	8gg'\J	.	.	.	.	.	.	.	.	.	.	.	.	.	.	.	.	.	.	.	.	.	.	.	.	.	.	.	.	.
=24	=24	=24	=24	=24	=24	=24	=24	=24	=24	=24	=24	=24	=24	=24	=24	=24	=24	=24	=24	=24	=24	=24	=24	=24	=24	=24	=24	=24	=24	=24	=24	=24	=24	=24
!	!	!	!LO:TX:a:t=....	!	!	!	!	!	!	!	!	!	!	!	!	!	!	!	!	!	!	!	!	!	!	!	!LO:TX:a:t=1	!	!LO:TX:a:t=1	!	!	!	!	!
4D\	10_	.	8bn'\L	.	(8ff\L	.	.	2D\	-re-	2d\	-re-	2bn\	-re-	.	2ff\	-re-	.	2bn\	-re-	.	2ff\	-re-	.	4dd/	4g\	.	1r	.	1r	.	2dd\	.	2ff\	.
.	.	.	8b'\	.	8ee\)	.	.	.	.	.	.	.	.	.	.	.	.	.	.	.	.	.	.	.	.	.	.	.	.	.	.	.	.	.
4d\	.	.	8b'\	.	8dd'\	.	.	.	.	.	.	.	.	.	.	.	.	.	.	.	.	.	.	4r	4ryy	.	.	.	.	.	.	.	.	.
.	.	.	8b'\J	.	8ff'\J	.	.	.	.	.	.	.	.	.	.	.	.	.	.	.	.	.	.	.	.	.	.	.	.	.	.	.	.	.
*	*	*	*Xtremolo	*	*	*	*	*	*	*	*	*	*	*	*	*	*	*	*	*	*	*	*	*	*	*	*	*	*	*	*	*	*	*
4C/	10_	.	(8g/L	.	(8ee\L	.	.	2C\	-re	2c\	-re	2g\	-re	.	2ee\	-re	.	2g\	-re	.	2ee\	-re	.	4cc/	4e\	.	.	.	.	.	2cc\	.	2ee\	.
.	.	.	8f/)	.	8dd\)	.	.	.	.	.	.	.	.	.	.	.	.	.	.	.	.	.	.	.	.	.	.	.	.	.	.	.	.	.
4c\	.	.	8e'/	.	8cc'\	.	.	.	.	.	.	.	.	.	.	.	.	.	.	.	.	.	.	4cc/	4c\	.	.	.	.	.	.	.	.	.
.	.	.	8g'/J	.	8ee'\J	.	.	.	.	.	.	.	.	.	.	.	.	.	.	.	.	.	.	.	.	.	.	.	.	.	.	.	.	.
!	!	!	!	!	!	!	!	!	!	!	!	!	!	!	!	!	!	!	!	!	!	!	!	!LO:LB:g=original	!	!	!	!	!	!	!	!	!	!
=25	=25	=25	=25	=25	=25	=25	=25	=25	=25	=25	=25	=25	=25	=25	=25	=25	=25	=25	=25	=25	=25	=25	=25	=25	=25	=25	=25	=25	=25	=25	=25	=25	=25	=25
4F\	6_	.	(8e/L	.	(8cc#X\L	.	.	(2F\	no-	(2f\	no-	(2a\	no-	.	(2dd\	no-	.	(2a\	no-	.	(2dd\	no-	.	2r	2ryy	.	2f\	.	2a\	.	2dd\	.	2ff\	.
.	.	.	8f/)	.	8dd\)	.	.	.	.	.	.	.	.	.	.	.	.	.	.	.	.	.	.	.	.	.	.	.	.	.	.	.	.	.
4F\	.	.	8a'/	.	8ff'\	.	.	.	.	.	.	.	.	.	.	.	.	.	.	.	.	.	.	.	.	.	.	.	.	.	.	.	.	.
.	.	.	8f'/J	.	8aa'\J	.	.	.	.	.	.	.	.	.	.	.	.	.	.	.	.	.	.	.	.	.	.	.	.	.	.	.	.	.
4G\	4	.	4e/	.	4ccn\	.	.	4G\	.	4e\	.	2g\)	.	.	4cc\	.	.	2g\)	.	.	4cc\	.	.	4ee/	4cc\	.	4g\	.	4g\	.	4cc\	.	4ee\	.
4GG/	n	.	4d/	.	4bn\	.	.	4GG/)	.	4d\)	.	.	.	.	4bn\)	.	.	.	.	.	4bn\)	.	.	4dd/	4g\	.	4g\	.	4g\	.	4bX\	.	4dd\	.
!	!	!	!LO:LB:g=original	!	!	!	!	!	!	!	!	!	!	!	!	!	!	!	!	!	!	!	!	!	!	!	!	!	!	!	!	!	!	!
=26	=26	=26	=26	=26	=26	=26	=26	=26	=26	=26	=26	=26	=26	=26	=26	=26	=26	=26	=26	=26	=26	=26	=26	=26	=26	=26	=26	=26	=26	=26	=26	=26	=26	=26
4C/	8	.	4e/	.	4cc\	.	.	4C/	-bis	4e\	-bis	4g\	-bis	.	4cc\	-bis	.	4g\	-bis	.	4cc\	-bis	.	4cc/	4e\	.	4c/	.	4g\	.	4e/	.	4cc\	.
4C/	4	.	4e/	.	4g\	.	.	4r	.	4r	.	4r	.	.	4r	.	.	4r	.	.	4r	.	.	4cc/	4e\	.	4c/	.	4g\	.	4e/	.	4g/	.
8r	.	.	8r	.	[y2cc\	.	.	2r	.	2r	.	2r	.	.	2r	.	.	2r	.	.	2r	.	.	4r	4ryy	.	4r	.	4r	.	8r	.	[y2cc\	.
8E\L	8_	.	8g/L	.	.	.	.	.	.	.	.	.	.	.	.	.	.	.	.	.	.	.	.	.	.	.	.	.	.	.	8g/L	.	.	.
8D\	.	.	8f/	.	.	.	.	.	.	.	.	.	.	.	.	.	.	.	.	.	.	.	.	4cc/	4e\	.	4c/	.	4g\	.	8f/	.	.	.
8C\J	.	.	8e/J	.	.	.	.	.	.	.	.	.	.	.	.	.	.	.	.	.	.	.	.	.	.	.	.	.	.	.	8e/J	.	.	.
=27	=27	=27	=27	=27	=27	=27	=27	=27	=27	=27	=27	=27	=27	=27	=27	=27	=27	=27	=27	=27	=27	=27	=27	=27	=27	=27	=27	=27	=27	=27	=27	=27	=27	=27
!	!	!	!	!	!LO:N:xstem:cue	!	!	!LO:TX:a:t=5.	!	!LO:TX:a:t=5.	!	!LO:TX:a:t=5.	!	!	!LO:TX:a:t=5.	!	!	!LO:TX:a:t=5.	!	!	!LO:TX:a:t=5.	!	!	!	!	!	!	!	!	!	!	!	!LO:N:xstem:cue	!
4G\	4	.	4e/	.	4cc\]	.	.	00r	.	00r	.	00r	.	.	00r	.	.	00r	.	.	00r	.	.	4dd/	4g\	.	4g\	.	4g\	.	4e/	.	4cc\]	.
4GG/	n	.	4d/	.	4bn\	.	.	.	.	.	.	.	.	.	.	.	.	.	.	.	.	.	.	4dd/	4g\	.	4g\	.	4g\	.	4d/	.	4bX\	.
8r	.	.	8r	.	[y2dd\	.	.	.	.	.	.	.	.	.	.	.	.	.	.	.	.	.	.	4r	4ryy	.	4r	.	4r	.	8r	.	[y2dd\	.
8Bn\L	5_	.	8dd\L	.	.	.	.	.	.	.	.	.	.	.	.	.	.	.	.	.	.	.	.	.	.	.	.	.	.	.	8dd\L	.	.	.
8A\	.	.	8cc\	.	.	.	.	.	.	.	.	.	.	.	.	.	.	.	.	.	.	.	.	4dd/	4g\	.	4g\	.	4g\	.	8cc\	.	.	.
8G\J	.	.	8bn\J	.	.	.	.	.	.	.	.	.	.	.	.	.	.	.	.	.	.	.	.	.	.	.	.	.	.	.	8bX\J	.	.	.
=28	=28	=28	=28	=28	=28	=28	=28	=28	=28	=28	=28	=28	=28	=28	=28	=28	=28	=28	=28	=28	=28	=28	=28	=28	=28	=28	=28	=28	=28	=28	=28	=28	=28	=28
!	!	!	!	!	!LO:N:xstem:cue	!	!	!	!	!	!	!	!	!	!	!	!	!	!	!	!	!	!	!	!	!	!	!	!	!	!	!	!LO:N:xstem:cue	!
4c\	9	.	4bn\	.	4dd\]	.	.	.	.	.	.	.	.	.	.	.	.	.	.	.	.	.	.	4dd/	4g\	.	4g\	.	4g\	.	4bX\	.	4dd\]	.
4C/	8	.	4cc\	.	4cc\	.	.	.	.	.	.	.	.	.	.	.	.	.	.	.	.	.	.	4cc/	4e\	.	4c/	.	4g\	.	4cc\	.	4cc\	.
8r	.	.	8r	.	2gg\	.	.	.	.	.	.	.	.	.	.	.	.	.	.	.	.	.	.	4r	4ryy	.	4r	.	4r	.	8r	.	2gg\	.
8C/L	5_	.	8ee\L	.	.	.	.	.	.	.	.	.	.	.	.	.	.	.	.	.	.	.	.	.	.	.	.	.	.	.	8ee\L	.	.	.
8D/	.	.	8ff\	.	.	.	.	.	.	.	.	.	.	.	.	.	.	.	.	.	.	.	.	4cc/	4c\	.	4c/	.	4g\	.	8ff\	.	.	.
8E/J	.	.	8gg\J	.	.	.	.	.	.	.	.	.	.	.	.	.	.	.	.	.	.	.	.	.	.	.	.	.	.	.	8gg\J	.	.	.
!LO:LB:g=original	!	!	!	!	!LO:LB:g=original	!	!	!	!	!	!	!	!	!	!	!	!	!	!	!	!	!	!	!	!	!	!	!	!	!	!	!	!LO:LB:g=original	!
=29	=29	=29	=29	=29	=29	=29	=29	=29	=29	=29	=29	=29	=29	=29	=29	=29	=29	=29	=29	=29	=29	=29	=29	=29	=29	=29	=29	=29	=29	=29	=29	=29	=29	=29
4F\	3_	.	8ff\L	.	8aa\L	.	.	.	.	.	.	.	.	.	.	.	.	.	.	.	.	.	.	2r	2ryy	.	2f\	.	2a\	.	2ff\	.	2aa\	.
.	.	.	8dd\	.	8bbn\	.	.	.	.	.	.	.	.	.	.	.	.	.	.	.	.	.	.	.	.	.	.	.	.	.	.	.	.	.
4F\	.	.	8ee\	.	8ccc\	.	.	.	.	.	.	.	.	.	.	.	.	.	.	.	.	.	.	.	.	.	.	.	.	.	.	.	.	.
.	.	.	8ff\J	.	8ddd\J	.	.	.	.	.	.	.	.	.	.	.	.	.	.	.	.	.	.	.	.	.	.	.	.	.	.	.	.	.
4G\	4	.	4ee\	.	4ccc\	.	.	.	.	.	.	.	.	.	.	.	.	.	.	.	.	.	.	4ee/	4cc\	.	4g\	.	4g\	.	4ee\	.	4gg\	.
4GG/	n	.	4dd\	.	4bbn\	.	.	.	.	.	.	.	.	.	.	.	.	.	.	.	.	.	.	4dd/	4g\	.	4g\	.	4g\	.	4dd\	.	4ff\	.
!	!	!	!	!	!	!	!	!	!	!	!	!	!	!	!	!	!	!	!	!	!	!	!	!	!	!	!	!	!	!	!LO:LB:g=original	!	!	!
=30	=30	=30	=30	=30	=30	=30	=30	=30	=30	=30	=30	=30	=30	=30	=30	=30	=30	=30	=30	=30	=30	=30	=30	=30	=30	=30	=30	=30	=30	=30	=30	=30	=30	=30
4C/	8_ 5_ 3_	.	4ee 4cc\	.	(8ccc\L	.	.	.	.	.	.	.	.	.	.	.	.	.	.	.	.	.	.	4cc/	4e\	.	4c/	.	4g\	.	4cc\	.	4ee\	.
.	.	.	.	.	8bbn\)	.	.	.	.	.	.	.	.	.	.	.	.	.	.	.	.	.	.	.	.	.	.	.	.	.	.	.	.	.
4C/	.	.	4ee 4cc\	.	8ccc'\	.	.	.	.	.	.	.	.	.	.	.	.	.	.	.	.	.	.	4cc/	4e\	.	4c/	.	4g\	.	4cc\	.	4ee\	.
.	.	.	.	.	8eee'\J	.	.	.	.	.	.	.	.	.	.	.	.	.	.	.	.	.	.	.	.	.	.	.	.	.	.	.	.	.
*	*	*	*	*	*tremolo	*	*	*	*	*	*	*	*	*	*	*	*	*	*	*	*	*	*	*	*	*	*	*	*	*	*	*	*	*
!	!	!	!	!	!LO:TX:a:t=....	!	!	!	!	!	!	!	!	!	!	!	!	!	!	!	!	!	!	!	!	!	!	!	!	!	!	!	!	!
4r	.	.	4r	.	8gg'\L	.	.	.	.	.	.	.	.	.	.	.	.	.	.	.	.	.	.	4r	4ryy	.	4r	.	4r	.	4r	.	4r	.
.	.	.	.	.	8gg'\	.	.	.	.	.	.	.	.	.	.	.	.	.	.	.	.	.	.	.	.	.	.	.	.	.	.	.	.	.
4C/	.	.	4ee 4cc\	.	8gg'\	.	.	.	.	.	.	.	.	.	.	.	.	.	.	.	.	.	.	4cc/	4e\	.	4c/	.	4g\	.	4cc\	.	4ee\	.
.	.	.	.	.	8gg'\J	.	.	.	.	.	.	.	.	.	.	.	.	.	.	.	.	.	.	.	.	.	.	.	.	.	.	.	.	.
*	*	*	*	*	*Xtremolo	*	*	*	*	*	*	*	*	*	*	*	*	*	*	*	*	*	*	*	*	*	*	*	*	*	*	*	*	*
=31	=31	=31	=31	=31	=31	=31	=31	=31	=31	=31	=31	=31	=31	=31	=31	=31	=31	=31	=31	=31	=31	=31	=31	=31	=31	=31	=31	=31	=31	=31	=31	=31	=31	=31
4C/	8_ 5_ 3_	.	4ee 4cc\	.	(8gg\L	.	.	1r	.	1r	.	1r	.	.	1r	.	.	1r	.	.	1r	.	.	4cc/	4e\	.	4c/	.	4g\	.	4cc\	.	4ee\	.
.	.	.	.	.	8ff#X\)	.	.	.	.	.	.	.	.	.	.	.	.	.	.	.	.	.	.	.	.	.	.	.	.	.	.	.	.	.
4C/	.	.	4ee 4cc\	.	8gg'\	.	.	.	.	.	.	.	.	.	.	.	.	.	.	.	.	.	.	4cc/	4e\	.	4c/	.	4g\	.	4cc\	.	4ee\	.
.	.	.	.	.	8ccc'\J	.	.	.	.	.	.	.	.	.	.	.	.	.	.	.	.	.	.	.	.	.	.	.	.	.	.	.	.	.
4r	.	.	4r	.	8gg'\L	.	.	.	.	.	.	.	.	.	.	.	.	.	.	.	.	.	.	4r	4ryy	.	4r	.	4r	.	4r	.	4r	.
.	.	.	.	.	8gg'\	.	.	.	.	.	.	.	.	.	.	.	.	.	.	.	.	.	.	.	.	.	.	.	.	.	.	.	.	.
4C/	.	.	4ee 4cc\	.	(8ee\	.	.	.	.	.	.	.	.	.	.	.	.	.	.	.	.	.	.	4cc/	4e\	.	4c/	.	4g\	.	4cc\	.	4ee\	.
.	.	.	.	.	8cc\J)	.	.	.	.	.	.	.	.	.	.	.	.	.	.	.	.	.	.	.	.	.	.	.	.	.	.	.	.	.
!	!	!	!LO:LB:g=original	!	!	!	!	!	!	!	!	!	!	!	!LO:LB:g=original	!	!	!	!	!	!	!	!	!	!	!	!	!	!	!	!	!	!	!
=32	=32	=32	=32	=32	=32	=32	=32	=32	=32	=32	=32	=32	=32	=32	=32	=32	=32	=32	=32	=32	=32	=32	=32	=32	=32	=32	=32	=32	=32	=32	=32	=32	=32	=32
4GG/	7_ n	.	8ff 8dd\	.	(8bn\L	.	.	4G\	Pa-	4d\	Pa-	4bn\	Pa-	.	4ff\	Pa-	.	4bn\	Pa-	.	4ff\	Pa-	.	4dd/	4g\	.	1g	.	1g	.	1dd	.	1ff	.
.	.	.	4ff 4dd\	.	8fff\)	.	.	.	.	.	.	.	.	.	.	.	.	.	.	.	.	.	.	.	.	.	.	.	.	.	.	.	.	.
4BBn/	.	.	.	.	8ddd'\	.	.	8G\	-ter	8d\	-ter	8b\	-ter	.	8ff\	-ter	.	8b\	-ter	.	8ff\	-ter	.	8dd/L	8g\L	.	.	.	.	.	.	.	.	.
.	.	.	4ff 4dd\	.	8bbn'\J	.	.	8G\	de	8d\	de	8b\	de	.	8ff\	de	.	8b\	de	.	8ff\	de	.	8dd/J	8g\J	.	.	.	.	.	.	.	.	.
!	!	!	!	!	!	!	!	!	!	!	!	!	!	!	!	!	!	!	!	!	!LO:LB:g=original	!	!	!	!	!	!	!	!	!	!	!	!	!
4D/	.	.	.	.	(8gg\L	.	.	4G\	coe-	4d\	coe-	4b\	coe-	.	4ff\	coe-	.	4b\	coe-	.	4ff\	coe-	.	4dd/	4g\	.	.	.	.	.	.	.	.	.
.	.	.	4ff 4dd\	.	8ff\)	.	.	.	.	.	.	.	.	.	.	.	.	.	.	.	.	.	.	.	.	.	.	.	.	.	.	.	.	.
4G\	.	.	.	.	8dd'\	.	.	4G\	-lis	4d\	-lis	4b\	-lis	.	4ff\	-lis	.	4b\	-lis	.	4ff\	-lis	.	4dd/	4g\	.	.	.	.	.	.	.	.	.
.	.	.	8ff 8dd\	.	8gg'\J	.	.	.	.	.	.	.	.	.	.	.	.	.	.	.	.	.	.	.	.	.	.	.	.	.	.	.	.	.
!	!	!	!	!	!LO:LB:g=original	!	!	!	!	!	!	!LO:LB:g=original	!	!	!	!	!	!	!	!	!	!	!	!	!	!	!	!	!LO:LB:g=original	!	!	!	!	!
=33	=33	=33	=33	=33	=33	=33	=33	=33	=33	=33	=33	=33	=33	=33	=33	=33	=33	=33	=33	=33	=33	=33	=33	=33	=33	=33	=33	=33	=33	=33	=33	=33	=33	=33
4G\	7	.	4dd\	.	4ff\	.	.	4G\	De-	4d\	De-	4g\	De-	.	4ff\	De-	.	4g\	De-	.	4ff\	De-	.	4dd/	4g\	.	4g\	.	4g\	.	4dd\	.	4ff\	.
4C/	3	.	4cc\	.	4ee\	.	.	4C/	-us	4c\	-us	4g\	-us	.	4ee\	-us	.	4g\	-us	.	4ee\	-us	.	4cc/	4e\	.	4c/	.	4g\	.	4cc\	.	4ee\	.
2r	.	.	8r	.	8r	.	.	2r	.	2r	.	2r	.	.	2r	.	.	2r	.	.	2r	.	.	2r	2ryy	.	2r	.	2r	.	2r	.	2r	.
.	.	.	8ee\L	.	8gg\L	.	1	.	.	.	.	.	.	.	.	.	.	.	.	.	.	.	.	.	.	.	.	.	.	.	.	.	.	.
.	.	.	8ff\	.	8aa\	.	2	.	.	.	.	.	.	.	.	.	.	.	.	.	.	.	.	.	.	.	.	.	.	.	.	.	.	.
.	.	.	8dd\J	.	8bbn\J	.	1	.	.	.	.	.	.	.	.	.	.	.	.	.	.	.	.	.	.	.	.	.	.	.	.	.	.	.
!	!	!	!	!	!	!	!	!	!	!	!	!	!	!	!	!	!	!LO:LB:g=original	!	!	!	!	!	!LO:LB:g=original	!	!	!LO:LB:g=original	!	!	!	!	!	!	!
=34	=34	=34	=34	=34	=34	=34	=34	=34	=34	=34	=34	=34	=34	=34	=34	=34	=34	=34	=34	=34	=34	=34	=34	=34	=34	=34	=34	=34	=34	=34	=34	=34	=34	=34
!	!	!	!	!	!	!	!	!LO:TX:a:t=2.	!	!LO:TX:a:t=2.	!	!LO:TX:a:t=2.	!	!	!LO:TX:a:t=2.	!	!	!LO:TX:a:t=2.	!	!	!LO:TX:a:t=2.	!	!	!	!	!	!	!	!	!	!	!	!	!
4C/	8_ 5_ 3_	.	4ee 4cc\	.	(8ccc\L	.	2	0r	.	0r	.	0r	.	.	0r	.	.	0r	.	.	0r	.	.	4cc/	4e\	.	4c/	.	4g\	.	4cc\	.	4ee\	.
.	.	.	.	.	8bbn\)	.	.	.	.	.	.	.	.	.	.	.	.	.	.	.	.	.	.	.	.	.	.	.	.	.	.	.	.	.
4C/	.	.	4ee 4cc\	.	8ccc'\	.	.	.	.	.	.	.	.	.	.	.	.	.	.	.	.	.	.	4cc/	4e\	.	4c/	.	4g\	.	4cc\	.	4ee\	.
.	.	.	.	.	8eee'\J	.	.	.	.	.	.	.	.	.	.	.	.	.	.	.	.	.	.	.	.	.	.	.	.	.	.	.	.	.
*	*	*	*	*	*tremolo	*	*	*	*	*	*	*	*	*	*	*	*	*	*	*	*	*	*	*	*	*	*	*	*	*	*	*	*	*
!	!	!	!	!	!LO:TX:a:t=....	!	!	!	!	!	!	!	!	!	!	!	!	!	!	!	!	!	!	!	!	!	!	!	!	!	!	!	!	!
4r	.	.	4r	.	8gg'\L	.	.	.	.	.	.	.	.	.	.	.	.	.	.	.	.	.	.	4r	4ryy	.	4r	.	4r	.	4r	.	4r	.
.	.	.	.	.	8gg'\	.	.	.	.	.	.	.	.	.	.	.	.	.	.	.	.	.	.	.	.	.	.	.	.	.	.	.	.	.
4C/	.	.	4ee 4cc\	.	8gg'\	.	.	.	.	.	.	.	.	.	.	.	.	.	.	.	.	.	.	4cc/	4e\	.	4c/	.	4g\	.	4cc\	.	4ee\	.
.	.	.	.	.	8gg'\J	.	.	.	.	.	.	.	.	.	.	.	.	.	.	.	.	.	.	.	.	.	.	.	.	.	.	.	.	.
*	*	*	*	*	*Xtremolo	*	*	*	*	*	*	*	*	*	*	*	*	*	*	*	*	*	*	*	*	*	*	*	*	*	*	*	*	*
=35	=35	=35	=35	=35	=35	=35	=35	=35	=35	=35	=35	=35	=35	=35	=35	=35	=35	=35	=35	=35	=35	=35	=35	=35	=35	=35	=35	=35	=35	=35	=35	=35	=35	=35
4C/	8_ 5_ 3_	.	4ee 4cc\	.	(8gg\L	.	.	.	.	.	.	.	.	.	.	.	.	.	.	.	.	.	.	4cc/	4e\	.	4c/	.	4g\	.	4cc\	.	4ee\	.
.	.	.	.	.	8ff#X\)	.	.	.	.	.	.	.	.	.	.	.	.	.	.	.	.	.	.	.	.	.	.	.	.	.	.	.	.	.
4C/	.	.	4ee 4cc\	.	8gg'\	.	.	.	.	.	.	.	.	.	.	.	.	.	.	.	.	.	.	4cc/	4e\	.	4c/	.	4g\	.	4cc\	.	4ee\	.
.	.	.	.	.	8ccc'\J	.	.	.	.	.	.	.	.	.	.	.	.	.	.	.	.	.	.	.	.	.	.	.	.	.	.	.	.	.
4r	.	.	4r	.	8gg'\L	.	.	.	.	.	.	.	.	.	.	.	.	.	.	.	.	.	.	4r	4ryy	.	4r	.	4r	.	4r	.	4r	.
.	.	.	.	.	8gg'\	.	.	.	.	.	.	.	.	.	.	.	.	.	.	.	.	.	.	.	.	.	.	.	.	.	.	.	.	.
4C/	.	.	4ee 4cc\	.	(8ee\	.	.	.	.	.	.	.	.	.	.	.	.	.	.	.	.	.	.	4cc/	4e\	.	4c/	.	4g\	.	4cc\	.	4ee\	.
.	.	.	.	.	8cc\J)	.	.	.	.	.	.	.	.	.	.	.	.	.	.	.	.	.	.	.	.	.	.	.	.	.	.	.	.	.
!LO:LB:g=original	!	!	!	!	!	!	!	!LO:LB:g=original	!	!LO:LB:g=original	!	!	!	!	!	!	!	!	!	!	!	!	!	!	!	!	!	!	!	!	!	!	!	!
=36	=36	=36	=36	=36	=36	=36	=36	=36	=36	=36	=36	=36	=36	=36	=36	=36	=36	=36	=36	=36	=36	=36	=36	=36	=36	=36	=36	=36	=36	=36	=36	=36	=36	=36
4GG/	7_ n_	.	8ff 8dd\	.	(8bn\L	.	.	4.G\	mi-	4.d\	mi-	4.bn\	mi-	.	4.ff\	mi-	.	4.bn\	mi-	.	4.ff\	mi-	.	4dd/	4g\	.	1g	.	1g	.	1dd	.	1ff	.
.	.	.	4ff 4dd\	.	8fff\)	.	.	.	.	.	.	.	.	.	.	.	.	.	.	.	.	.	.	.	.	.	.	.	.	.	.	.	.	.
4BBn/	.	.	.	.	8ddd'\	.	.	.	.	.	.	.	.	.	.	.	.	.	.	.	.	.	.	8dd/L	8g\L	.	.	.	.	.	.	.	.	.
.	.	.	4ff 4dd\	.	8bbn'\J	.	.	8G\	-se-	8d\	-se-	8b\	-ſe-	.	8ff\	-ſe-	.	8b\	-se-	.	8ff\	-se-	.	8dd/J	8g\J	.	.	.	.	.	.	.	.	.
4D/	.	.	.	.	(8gg\L	.	.	4G\	-re-	4d\	-re-	4b\	-re-	.	4ff\	-re-	.	4b\	-re-	.	4ff\	-re-	.	4dd/	4g\	.	.	.	.	.	.	.	.	.
.	.	.	4ff 4dd\	.	8ff\)	.	.	.	.	.	.	.	.	.	.	.	.	.	.	.	.	.	.	.	.	.	.	.	.	.	.	.	.	.
4G\	.	.	.	.	8dd'\	.	.	4G\	-re	4d\	-re	4b\	-re	.	4ff\	-re	.	4b\	-re	.	4ff\	-re	.	4dd/	4g\	.	.	.	.	.	.	.	.	.
.	.	.	8ff 8dd\	.	8gg'\J	.	.	.	.	.	.	.	.	.	.	.	.	.	.	.	.	.	.	.	.	.	.	.	.	.	.	.	.	.
=37	=37	=37	=37	=37	=37	=37	=37	=37	=37	=37	=37	=37	=37	=37	=37	=37	=37	=37	=37	=37	=37	=37	=37	=37	=37	=37	=37	=37	=37	=37	=37	=37	=37	=37
4G\	.	.	4dd\	.	4ff\	.	.	4G\	no-	4d\	no-	4g\	no-	.	4ff\	no-	.	4g\	no-	.	4ff\	no-	.	4dd/	4g\	.	4g\	.	4g\	.	4dd\	.	4ff\	.
4C/	10	.	4cc\	.	4ee\	.	.	4C/	-bis	4c\	-bis	4g\	-bis	.	4ee\	-bis	.	4g\	-bis	.	4ee\	-bis	.	4cc/	4e\	.	4c/	.	4g\	.	4cc\	.	4ee\	.
4r	.	.	4r	.	4r	.	.	2r	.	2r	.	2r	.	.	2r	.	.	2r	.	.	2r	.	.	4r	4ryy	.	2r	.	2r	.	4r	.	4r	.
4C/	8	.	4cc\	.	4cc\	.	.	.	.	.	.	.	.	.	.	.	.	.	.	.	.	.	.	4cc/	4c\	.	.	.	.	.	4cc\	.	4ee\	.
!	!	!	!LO:LB:g=original	!	!LO:LB:g=original	!	!	!	!	!	!	!	!	!	!LO:LB:g=original	!	!	!	!	!	!	!	!	!	!	!	!	!	!	!	!	!	!	!
=38	=38	=38	=38	=38	=38	=38	=38	=38	=38	=38	=38	=38	=38	=38	=38	=38	=38	=38	=38	=38	=38	=38	=38	=38	=38	=38	=38	=38	=38	=38	=38	=38	=38	=38
4C/	-7_ 5	.	8b- 8g/	.	(8cc\L	.	.	4.C/	mi-	4.e\	mi-	4.g\	mi-	.	4.b-\	mi-	.	4.g\	mi-	.	4.b-X\	mi-	.	4cc/	4c\	.	1c	.	1g	.	1gg	.	1bb-X	.
.	.	.	4b- 4g/	.	8bb-X\)	.	.	.	.	.	.	.	.	.	.	.	.	.	.	.	.	.	.	.	.	.	.	.	.	.	.	.	.	.
4E\	.	.	.	.	8gg'\	.	.	.	.	.	.	.	.	.	.	.	.	.	.	.	.	.	.	8cc/L	8c\L	.	.	.	.	.	.	.	.	.
.	.	.	4b- 4g/	.	8ee'\J	.	.	8C/	-se-	8e\	-se-	8g\	-ſe-	.	8b-\	-ſe-	.	8g\	-se-	.	8b-\	-se-	.	8cc/J	8c\J	.	.	.	.	.	.	.	.	.
4G\	.	.	.	.	(8cc\L	.	.	4C/	-re-	4e\	-re-	4g\	-re-	.	4b-\	-re-	.	4g\	-re-	.	4b-\	-re-	.	4cc/	4c\	.	.	.	.	.	.	.	.	.
.	.	.	4b- 4g/	.	8b-\)	.	.	.	.	.	.	.	.	.	.	.	.	.	.	.	.	.	.	.	.	.	.	.	.	.	.	.	.	.
4c\	.	.	.	.	8g'\	.	.	4C/	-re	4e\	-re	4g\	-re	.	4b-\	-re	.	4g\	-re	.	4b-\	-re	.	4cc/	4c\	.	.	.	.	.	.	.	.	.
.	.	.	8b- 8g/	.	8cc'\J	.	.	.	.	.	.	.	.	.	.	.	.	.	.	.	.	.	.	.	.	.	.	.	.	.	.	.	.	.
!	!	!	!	!	!	!	!	!	!	!	!	!	!	!	!	!	!	!	!	!	!LO:LB:g=original	!	!	!	!	!	!	!	!	!	!	!	!LO:LB:g=original	!
=39	=39	=39	=39	=39	=39	=39	=39	=39	=39	=39	=39	=39	=39	=39	=39	=39	=39	=39	=39	=39	=39	=39	=39	=39	=39	=39	=39	=39	=39	=39	=39	=39	=39	=39
4C/	7	.	4g/	.	4b-\	.	.	4F\	no-	4f\	no-	4g\	no-	.	4b-\	no-	.	4g\	no-	.	4b-\	no-	.	4cc/	4c\	.	4c/	.	4g\	.	4gg\	.	4bb-\	.
4F\	3	.	4f/	.	4a\	.	.	4F\	-bis	4c\	-bis	4f\	-bis	.	4a\	-bis	.	4f\	-bis	.	4a\	-bis	.	4cc/	4c\	.	4A/	.	4f\	.	4ff\	.	4aa\	.
!	!	!	!	!	!	!	!	!	!	!	!	!LO:LB:g=original	!	!	!	!	!	!	!	!	!	!	!	!	!	!	!	!	!	!	!	!	!	!
8r	.	.	4.a/	.	4.ff\	.	.	4.A\	mi-	4.c\	mi-	4.a\	mi-	.	4.ff\	mi-	.	4.a\	mi-	.	4.ff\	mi-	.	2r	2ryy	.	2F/	.	2f\	.	4.a\	.	4.ff\	.
8F\L	8_	.	.	.	.	.	.	.	.	.	.	.	.	.	.	.	.	.	.	.	.	.	.	.	.	.	.	.	.	.	.	.	.	.
8G\	.	.	.	.	.	.	.	.	.	.	.	.	.	.	.	.	.	.	.	.	.	.	.	.	.	.	.	.	.	.	.	.	.	.
8A\J	-5	.	8cc\	.	8ee-X\	.	.	8A\	-se-	8c\	-se-	8a\	-ſe-	.	8ee-X\	-se-	.	8a\	-se-	.	8ee-X\	-se-	.	.	.	.	.	.	.	.	8cc\	.	8ee-\	.
*	*	*	*	*	*	*	*	*	*	*	*	*	*	*	*	*	*	*	*	*	*	*	*	*v	*v	*	*	*	*	*	*	*	*	*
!	!	!	!	!	!	!	!	!	!	!	!	!	!	!	!	!	!	!	!	!	!	!	!	!	!	!	!	!	!	!LO:LB:g=original	!	!	!
=40	=40	=40	=40	=40	=40	=40	=40	=40	=40	=40	=40	=40	=40	=40	=40	=40	=40	=40	=40	=40	=40	=40	=40	=40	=40	=40	=40	=40	=40	=40	=40	=40	=40
!	!	!	!	!	!	!	!	!	!	!	!	!	!	!	!	!	!	!	!	!	!	!	!	!LO:TX:a:t=1	!	!LO:TX:a:t=1	!	!LO:TX:a:t=1	!	!	!	!	!
.	.	.	.	.	.	.	.	.	.	.	.	.	.	.	4qqee-X/	.	.	.	.	.	16qqee-X/	.	.	.	.	.	.	.	.	.	.	.	.
4B-X\	3_	.	(8cc\L	.	(8ee-X\L	.	.	2.B-\	-re-	(2B-X\	-re-	(2f\	-re-	.	(2dd\	-re-	.	(2f\	-re-	.	(2dd\	-re-	.	1r	.	1r	.	1r	.	(8cc\L	.	(8ee-\L	.
.	.	.	8b-\)	.	8dd\)	.	.	.	.	.	.	.	.	.	.	.	.	.	.	.	.	.	.	.	.	.	.	.	.	8b-X\)	.	8dd\)	.
4B-\	.	.	8b-'\	.	8dd'\	.	.	.	.	.	.	.	.	.	.	.	.	.	.	.	.	.	.	.	.	.	.	.	.	(8b-\	.	(8dd\	.
.	.	.	8a'\J	.	8cc'\J	.	.	.	.	.	.	.	.	.	.	.	.	.	.	.	.	.	.	.	.	.	.	.	.	8a\J)	.	8cc\J)	.
4B-\	.	.	(8a/L	.	(8cc\L	.	.	.	.	4d\)	.	8a\L	.	.	8cc\L	.	.	8a\L	.	.	8cc\L	.	.	.	.	.	.	.	.	(8a\L	.	(8cc\L	.
.	.	.	8g/)	.	8b-\)	.	.	.	.	.	.	8g\J)	.	.	8b-\J)	.	.	8g\J)	.	.	8b-\J)	.	.	.	.	.	.	.	.	8g\)	.	8b-\)	.
4B-\	.	.	8g'/	.	8b-'\	.	.	4B-\	-re	4d\	-re	8g\L	-re	.	8b-\L	-re	.	8g\L	-re	.	8b-\L	-re	.	.	.	.	.	.	.	(8g\	.	(8b-\	.
.	.	.	8f'/J	.	8a'\J	.	.	.	.	.	.	8f\J	.	.	8a\J	.	.	8f\J	.	.	8a\J	.	.	.	.	.	.	.	.	8f\J)	.	8a\J)	.
!	!	!	!	!	!	!	!	!LO:LB:g=original	!	!	!	!	!	!	!	!	!	!LO:LB:g=original	!	!	!	!	!	!	!	!	!	!	!	!	!	!	!
=41	=41	=41	=41	=41	=41	=41	=41	=41	=41	=41	=41	=41	=41	=41	=41	=41	=41	=41	=41	=41	=41	=41	=41	=41	=41	=41	=41	=41	=41	=41	=41	=41	=41
*	*	*	*	*	*	*	*	*	*	*	*	*	*	*	*	*	*	*	*	*	*	*	*	*^	*	*	*	*	*	*	*	*	*
4c\	6	.	4f/	.	4a/	.	.	4c\	no-	4c\	no-	4f\	no-	.	4a\	no-	.	4f\	no-	.	4a\	no-	.	4cc/	4c\	.	4f\	.	4a\	.	4f/	.	4a\	.
4C/	5	.	4e/	.	4g/	.	.	4C/	-bis	4c\	-bis	4e\	-bis	.	4g\	-bis	.	4e\	-bis	.	4g\	-bis	.	4cc/	4c\	.	4c/	.	4g\	.	4e/	.	4g\	.
!	!	!	!	!	!	!	!	!	!	!	!	!LO:TX:a:i:t=Solo	!	!	!	!	!	!	!	!	!	!	!	!LO:TX:t=P:problem=8 taktów wykreślonych	!	!	!	!	!	!	!	!	!	!
8c\L|	.	.	2r	.	2r	.	.	2r	.	2r	.	2r	.	.	2r	.	.	2r	.	.	2r	.	.	2r	2ryy	.	2r	.	2r	.	2r	.	2r	.
8B-\|	.	.	.	.	.	.	.	.	.	.	.	.	.	.	.	.	.	.	.	.	.	.	.	.	.	.	.	.	.	.	.	.	.	.
8A\|	.	.	.	.	.	.	.	.	.	.	.	.	.	.	.	.	.	.	.	.	.	.	.	.	.	.	.	.	.	.	.	.	.	.
8G\J|	.	.	.	p	.	.	.	.	.	.	.	.	.	.	.	.	.	.	.	.	.	.	.	.	.	.	.	.	.	.	.	.	.	.
*	*	*	*	*	*	*	*	*	*	*	*	*	*	*	*	*	*	*	*	*	*	*	*	*v	*v	*	*	*	*	*	*	*	*	*
!LO:LB:g=original	!	!	!	!	!	!	!	!	!	!LO:LB:g=original	!	!	!	!	!	!	!	!	!	!	!	!	!	!LO:LB:g=original	!	!	!	!	!	!	!	!	!
=42	=42	=42	=42	=42	=42	=42	=42	=42	=42	=42	=42	=42	=42	=42	=42	=42	=42	=42	=42	=42	=42	=42	=42	=42	=42	=42	=42	=42	=42	=42	=42	=42	=42
!LO:TX:a:i:t=Tasto	!	!LO:DY:rj	!	!	!	!	!	!LO:TX:a:t=2	!	!LO:TX:a:t=2.	!	!	!	!	!LO:TX:a:t=2	!	!	!LO:TX:a:i:t=Solo	!	!	!LO:TX:a:t=2.	!	!	!LO:TX:a:t=2	!	!LO:TX:a:t=2	!	!LO:TX:a:t=2	!	!LO:TX:a:t=2	!	!LO:TX:a:t=2	!
4F\	.	p	4A/	.	4c/	p	.	0r	.	0r	.	4c\	Spi-	.	0r	.	.	4c\	Spi-	.	0r	.	.	0r	.	0r	.	0r	.	0r	.	0r	.
4F\	.	.	4A/	.	4c/	.	.	.	.	.	.	8c\	-ri-	.	.	.	.	8c\	-ri-	.	.	.	.	.	.	.	.	.	.	.	.	.	.
.	.	.	.	.	.	.	.	.	.	.	.	8c\	-tus	.	.	.	.	8c\	-tus	.	.	.	.	.	.	.	.	.	.	.	.	.	.
4r	.	.	8r	.	8r	.	.	.	.	.	.	8c\L	San-	.	.	.	.	(8c\L	San-	.	.	.	.	.	.	.	.	.	.	.	.	.	.
.	.	.	8c/L	.	8a/L	.	.	.	.	.	.	8a\J	.	.	.	.	.	8a\J)	.	.	.	.	.	.	.	.	.	.	.	.	.	.	.
4F\	.	.	8B-/	.	8g/	.	.	.	.	.	.	8g\L	-cte	.	.	.	.	(8g\L	-cte	.	.	.	.	.	.	.	.	.	.	.	.	.	.
.	.	.	8A/J	.	8f/J	.	.	.	.	.	.	8f\J	.	.	.	.	.	8f\J)	.	.	.	.	.	.	.	.	.	.	.	.	.	.	.
!	!	!	!	!	!LO:LB:g=original	!	!	!	!	!	!	!	!	!	!	!	!	!	!	!	!	!	!	!	!	!	!	!	!	!	!	!	!
=43	=43	=43	=43	=43	=43	=43	=43	=43	=43	=43	=43	=43	=43	=43	=43	=43	=43	=43	=43	=43	=43	=43	=43	=43	=43	=43	=43	=43	=43	=43	=43	=43	=43
4c\	.	.	4A/	.	4f/	.	.	.	.	.	.	4f\	De-	.	.	.	.	4f\	De-	.	.	.	.	.	.	.	.	.	.	.	.	.	.
4C/	.	.	4G/	.	4e/	.	.	.	.	.	.	4e\	-us	.	.	.	.	4e\	-us	.	.	.	.	.	.	.	.	.	.	.	.	.	.
8G\L|	.	.	2r	.	2r	.	.	.	.	.	.	2r	.	.	.	.	.	2r	.	.	.	.	.	.	.	.	.	.	.	.	.	.	.
8F\|	.	.	.	.	.	.	.	.	.	.	.	.	.	.	.	.	.	.	.	.	.	.	.	.	.	.	.	.	.	.	.	.	.
8E\|	.	.	.	.	.	.	.	.	.	.	.	.	.	.	.	.	.	.	.	.	.	.	.	.	.	.	.	.	.	.	.	.	.
8D\J|	.	.	.	.	.	.	.	.	.	.	.	.	.	.	.	.	.	.	.	.	.	.	.	.	.	.	.	.	.	.	.	.	.
!	!	!	!LO:LB:g=original	!	!	!	!	!	!	!	!	!LO:LB:g=original	!	!	!LO:LB:g=original	!	!	!	!	!	!	!	!	!	!	!	!	!	!	!	!	!	!
=44	=44	=44	=44	=44	=44	=44	=44	=44	=44	=44	=44	=44	=44	=44	=44	=44	=44	=44	=44	=44	=44	=44	=44	=44	=44	=44	=44	=44	=44	=44	=44	=44	=44
*	*	*	*	*	*	*	*	*	*	*	*	*	*	*	*	*	*	*	*	*	*	*	*	*^	*	*	*	*	*	*	*	*	*
!	!	!LO:DY:rj	!	!LO:DY:t=f:rj	!	!	!	!	!	!	!	!LO:TX:a:i:t=Tutti:rj	!	!	!	!	!	!LO:TX:a:i:t=Tutti:rj	!	!	!	!	!	!	!	!LO:DY:rj	!	!	!	!	!	!	!	!LO:DY:t=f:rj
4C\	7_ 5_	f	8e/	f	(8cc\L	f	.	4.C/	mi-	4.e\	mi-	4.g\	mi-	.	4.b-\	mi-	.	4.g\	mi-	.	4.b-\	mi-	.	4cc/	4c\	f	1c	.	1g	.	1g	.	1b-	f
.	.	.	4b- 4g/	.	8bb-X\)	.	.	.	.	.	.	.	.	.	.	.	.	.	.	.	.	.	.	.	.	.	.	.	.	.	.	.	.	.
4E\	.	.	.	.	8gg'\	.	.	.	.	.	.	.	.	.	.	.	.	.	.	.	.	.	.	8cc/L	8c\L	.	.	.	.	.	.	.	.	.
.	.	.	4b- 4g/	.	8ee'\J	.	.	8C/	-se-	8e\	-se-	8g\	-ſe-	.	8b-\	-ſe-	.	8g\	-se-	.	8b-\	-se-	.	8cc/J	8c\J	.	.	.	.	.	.	.	.	.
4G\	.	.	.	.	(8cc\L	.	.	4C/	-re-	4e\	-re-	4g\	-re-	.	4b-\	-re-	.	4g\	-re-	.	4b-\	-re-	.	4cc/	4c\	.	.	.	.	.	.	.	.	.
.	.	.	4b- 4g/	.	8b-\)	.	.	.	.	.	.	.	.	.	.	.	.	.	.	.	.	.	.	.	.	.	.	.	.	.	.	.	.	.
4c\	.	.	.	.	8g'\	.	.	4C/	-re	4e\	-re	4g\	-re	.	4b-\	-re	.	4g\	-re	.	4b-\	-re	.	4cc/	4c\	.	.	.	.	.	.	.	.	.
.	.	.	8b- 8g/	.	8cc'\J	.	.	.	.	.	.	.	.	.	.	.	.	.	.	.	.	.	.	.	.	.	.	.	.	.	.	.	.	.
=45	=45	=45	=45	=45	=45	=45	=45	=45	=45	=45	=45	=45	=45	=45	=45	=45	=45	=45	=45	=45	=45	=45	=45	=45	=45	=45	=45	=45	=45	=45	=45	=45	=45	=45
4C/	.	.	4g/	.	4b-\	.	.	4C/	no-	8f\L	no-	4g\	no-	.	4b-\	no-	.	4g\	no-	.	4b-\	no-	.	4cc/	4c\	.	4c/	.	4g\	.	4g/	.	4b-\	.
.	.	.	.	.	.	.	.	.	.	8c\J	.	.	.	.	.	.	.	.	.	.	.	.	.	.	.	.	.	.	.	.	.	.	.	.
4F\	3	.	4f/	.	4a\	.	.	4F\	-bis	4c\	-bis	4f\	-bis	.	4a\	-bis	.	4f\	-bis	.	4a\	-bis	.	4cc/	4c\	.	4A/	.	4f\	.	4f/	.	4a\	.
!	!	!	!	!	!	!	!	!	!	!	!	!LO:TX:a:i:t=Solo	!	!	!	!	!	!	!	!	!	!	!	!	!	!	!	!	!	!	!	!	!	!
8c\L|	.	.	2r	.	2r	.	.	2r	.	2r	.	2r	.	.	2r	.	.	2r	.	.	2r	.	.	2r	2ryy	.	2r	.	2r	.	2r	.	2r	.
8B-\|	.	.	.	.	.	.	.	.	.	.	.	.	.	.	.	.	.	.	.	.	.	.	.	.	.	.	.	.	.	.	.	.	.	.
8A\|	.	.	.	.	.	.	.	.	.	.	.	.	.	.	.	.	.	.	.	.	.	.	.	.	.	.	.	.	.	.	.	.	.	.
8G\J|	.	.	.	p	.	p	.	.	.	.	.	.	.	.	.	.	.	.	.	.	.	.	.	.	.	.	.	.	.	.	.	.	.	.
*	*	*	*	*	*	*	*	*	*	*	*	*	*	*	*	*	*	*	*	*	*	*	*	*v	*v	*	*	*	*	*	*	*	*	*
!	!	!	!	!	!	!	!	!	!	!	!	!	!	!	!	!	!	!LO:LB:g=original	!	!	!LO:LB:g=original	!	!	!	!	!	!	!	!	!	!	!	!
=46	=46	=46	=46	=46	=46	=46	=46	=46	=46	=46	=46	=46	=46	=46	=46	=46	=46	=46	=46	=46	=46	=46	=46	=46	=46	=46	=46	=46	=46	=46	=46	=46	=46
!LO:TX:a:i:t=Tasto	!	!LO:DY:rj:t=p	!	!	!	!	!	!LO:TX:a:t=2	!	!LO:TX:a:t=2	!	!	!	!	!LO:TX:a:t=2.	!	!	!LO:TX:a:i:t=Solo:rj	!	!	!LO:TX:a:t=2.	!	!	!LO:TX:a:t=2.	!	!LO:TX:a:t=2.	!	!LO:TX:a:t=2.	!	!LO:TX:a:t=2	!	!LO:TX:a:t=2.	!
4F\	.	p	4A/	.	4c/	.	.	0r	.	0r	.	4c\	San-	.	0r	.	.	4c\	San-	.	0r	.	.	0r	.	0r	.	0r	.	0r	.	0r	.
4F\	.	.	4A/	.	4c/	.	.	.	.	.	.	8c\	-cta	.	.	.	.	8c\	-cta	.	.	.	.	.	.	.	.	.	.	.	.	.	.
.	.	.	.	.	.	.	.	.	.	.	.	8c\	Tri-	.	.	.	.	8c\	Tri-	.	.	.	.	.	.	.	.	.	.	.	.	.	.
4r	.	.	8r	.	8r	.	.	.	.	.	.	8c\	-ni-	.	.	.	.	8c\	-ni-	.	.	.	.	.	.	.	.	.	.	.	.	.	.
.	.	.	8c/L	.	8a/L	.	.	.	.	.	.	8a\	-tas	.	.	.	.	8a\	-tas	.	.	.	.	.	.	.	.	.	.	.	.	.	.
4F\	.	.	8B-/	.	8g/	.	.	.	.	.	.	8g\	u-	.	.	.	.	8g\	u-	.	.	.	.	.	.	.	.	.	.	.	.	.	.
.	.	.	8A/J	.	8f/J	.	.	.	.	.	.	8f\	-nus	.	.	.	.	8f\	-nus	.	.	.	.	.	.	.	.	.	.	.	.	.	.
!LO:LB:g=original	!	!	!	!	!	!	!	!	!	!	!	!	!	!	!	!	!	!	!	!	!	!	!	!	!	!	!	!	!	!	!	!	!
=47	=47	=47	=47	=47	=47	=47	=47	=47	=47	=47	=47	=47	=47	=47	=47	=47	=47	=47	=47	=47	=47	=47	=47	=47	=47	=47	=47	=47	=47	=47	=47	=47	=47
4c\	.	.	4A/	.	4f/	.	.	.	.	.	.	4f\	De-	.	.	.	.	4f\	De-	.	.	.	.	.	.	.	.	.	.	.	.	.	.
4C/	.	.	4G/	.	4e/	.	.	.	.	.	.	4e\	-us	.	.	.	.	4e\	-us	.	.	.	.	.	.	.	.	.	.	.	.	.	.
8G\L|	.	.	2r	.	2r	.	.	.	.	.	.	2r	.	.	.	.	.	2r	.	.	.	.	.	.	.	.	.	.	.	.	.	.	.
8F\|	.	.	.	.	.	.	.	.	.	.	.	.	.	.	.	.	.	.	.	.	.	.	.	.	.	.	.	.	.	.	.	.	.
8E\|	.	.	.	.	.	.	.	.	.	.	.	.	.	.	.	.	.	.	.	.	.	.	.	.	.	.	.	.	.	.	.	.	.
8D\J|	.	.	.	.	.	f	.	.	.	.	.	.	.	.	.	.	.	.	.	.	.	.	.	.	.	.	.	.	.	.	.	.	.
!	!	!	!	!	!	!	!	!	!	!	!	!LO:LB:g=original	!	!	!	!	!	!	!	!	!	!	!	!	!	!	!	!LO:LB:g=original	!	!	!	!	!
=48	=48	=48	=48	=48	=48	=48	=48	=48	=48	=48	=48	=48	=48	=48	=48	=48	=48	=48	=48	=48	=48	=48	=48	=48	=48	=48	=48	=48	=48	=48	=48	=48	=48
*	*	*	*	*	*	*	*	*	*	*	*	*	*	*	*	*	*	*	*	*	*	*	*	*^	*	*	*	*	*	*	*	*	*
!	!	!LO:DY:rj	!	!	!	!	!	!	!	!	!	!LO:TX:a:i:t=Tutti:rj	!	!	!	!	!	!LO:TX:a:i:t=Tutti:rj	!	!	!	!	!	!	!	!	!	!	!	!	!	!	!	!
4C\	7_ 5_	f	8e/	f	(8cc\L	.	.	4.C/	mi-	4.e\	mi-	4.g\	mi-	.	4.b-\	mi-	.	4.g\	mi-	.	4.b-\	mi-	.	4cc/	4c\	.	1c	.	1g	.	1g	.	1b-	.
.	.	.	4b- 4g/	.	8bb-X\)	.	.	.	.	.	.	.	.	.	.	.	.	.	.	.	.	.	.	.	.	.	.	.	.	.	.	.	.	.
4E\	.	.	.	.	8gg'\	.	.	.	.	.	.	.	.	.	.	.	.	.	.	.	.	.	.	8cc/L	8c\L	.	.	.	.	.	.	.	.	.
.	.	.	4b- 4g/	.	8ee'\J	.	.	8C/	-se-	8e\	-se-	8g\	-ſe-	.	8b-\	-ſe-	.	8g\	-se-	.	8b-\	-se-	.	8cc/J	8c\J	.	.	.	.	.	.	.	.	.
4G\	.	.	.	.	(8cc\L	.	.	4C/	-re-	4e\	-re-	4g\	-re-	.	4b-\	-re-	.	4g\	-re-	.	4b-\	-re-	.	4cc/	4c\	.	.	.	.	.	.	.	.	.
.	.	.	4b- 4g/	.	8b-\)	.	.	.	.	.	.	.	.	.	.	.	.	.	.	.	.	.	.	.	.	.	.	.	.	.	.	.	.	.
4c\	.	.	.	.	8g'\	.	.	4C/	-re	4e\	-re	4g\	-re	.	4b-\	-re	.	4g\	-re	.	4b-\	-re	.	4cc/	4c\	.	.	.	.	.	.	.	.	.
.	.	.	8b- 8g/	.	8cc'\J	.	.	.	.	.	.	.	.	.	.	.	.	.	.	.	.	.	.	.	.	.	.	.	.	.	.	.	.	.
!	!	!	!	!	!LO:LB:g=original	!	!	!	!	!	!	!	!	!	!	!	!	!	!	!	!	!	!	!	!	!	!	!	!	!	!	!	!	!
=49	=49	=49	=49	=49	=49	=49	=49	=49	=49	=49	=49	=49	=49	=49	=49	=49	=49	=49	=49	=49	=49	=49	=49	=49	=49	=49	=49	=49	=49	=49	=49	=49	=49	=49
4C\	.	.	4g/	.	4b-\	.	.	4C/	no-	8f\L	no-	4g\	no-	.	4b-\	no-	.	4g\	no-	.	4b-\	no-	.	4cc/	4c\	.	4c/	.	4g\	.	4g/	.	4b-\	.
.	.	.	.	.	.	.	.	.	.	8c\J	.	.	.	.	.	.	.	.	.	.	.	.	.	.	.	.	.	.	.	.	.	.	.	.
4F\	3	.	4f/	.	4a\	.	.	4F\	-bis	4c\	-bis	4f\	-bis	.	4a\	-bis	.	4f\	-bis	.	4a\	-bis	.	4cc/	4c\	.	4A/	.	4f\	.	4f/	.	4a\	.
4r	.	.	8r	.	8r	.	.	2r	.	2r	.	2r	.	.	2r	.	.	2r	.	.	2r	.	.	2r	2ryy	.	2r	.	2r	.	2r	.	2r	.
.	.	.	8ff\L	.	8aa\L	.	.	.	.	.	.	.	.	.	.	.	.	.	.	.	.	.	.	.	.	.	.	.	.	.	.	.	.	.
4F\	5	.	8gg\	.	8bb-\	.	.	.	.	.	.	.	.	.	.	.	.	.	.	.	.	.	.	.	.	.	.	.	.	.	.	.	.	.
.	.	.	8aa\J	.	8ccc\J	.	.	.	.	.	.	.	.	.	.	.	.	.	.	.	.	.	.	.	.	.	.	.	.	.	.	.	.	.
*	*	*	*	*	*	*	*	*	*	*	*	*	*	*	*	*	*	*	*	*	*	*	*	*v	*v	*	*	*	*	*	*	*	*	*
!	!	!	!LO:LB:g=original	!	!	!	!	!LO:LB:g=original	!	!	!	!	!	!	!	!	!	!	!	!	!	!	!	!	!	!LO:LB:g=original	!	!	!	!	!	!	!
=50	=50	=50	=50	=50	=50	=50	=50	=50	=50	=50	=50	=50	=50	=50	=50	=50	=50	=50	=50	=50	=50	=50	=50	=50	=50	=50	=50	=50	=50	=50	=50	=50	=50
!	!	!	!	!	!	!	!	!	!	!	!	!	!	!	!	!	!	!	!	!	!	!	!	!LO:TX:a:t=3	!	!	!	!	!	!	!	!	!
4BB-/	10	.	(8bb-\L	.	(8ddd\L	.	.	2B-\	mi-	2d\	mi-	2f\	mi-	.	2dd\	mi-	.	2f\	mi-	.	2dd\	mi-	.	0r	.	2F/	.	2f\	.	2b-\	.	2dd\	.
.	.	.	8ff\)	.	8ccc\)	.	.	.	.	.	.	.	.	.	.	.	.	.	.	.	.	.	.	.	.	.	.	.	.	.	.	.	.
4B-\	.	.	8ff'\	.	8bb-'\	.	.	.	.	.	.	.	.	.	.	.	.	.	.	.	.	.	.	.	.	.	.	.	.	.	.	.	.
.	.	.	8ff'\J	.	8ddd'\J	.	.	.	.	.	.	.	.	.	.	.	.	.	.	.	.	.	.	.	.	.	.	.	.	.	.	.	.
*	*	*	*tremolo	*	*	*	*	*	*	*	*	*	*	*	*	*	*	*	*	*	*	*	*	*	*	*	*	*	*	*	*	*	*
!	!	!	!LO:TX:a:t=....	!	!	!	!	!	!	!	!	!	!	!	!	!	!	!	!	!	!	!	!	!	!	!	!	!	!	!	!	!	!
4AA/	10	.	8ff'\L	.	(8ccc\L	.	.	2A\	-se-	2f\	-se-	2f\	-ſe-	.	2cc\	-se-	.	2f\	-se-	.	2cc\	-se-	.	.	.	2F/	.	2f\	.	2a\	.	2cc\	.
.	.	.	8ff'\	.	8bb-\)	.	.	.	.	.	.	.	.	.	.	.	.	.	.	.	.	.	.	.	.	.	.	.	.	.	.	.	.
4A\	.	.	8ff'\	.	8aa'\	.	.	.	.	.	.	.	.	.	.	.	.	.	.	.	.	.	.	.	.	.	.	.	.	.	.	.	.
.	.	.	8ff'\J	.	8ccc'\J	.	.	.	.	.	.	.	.	.	.	.	.	.	.	.	.	.	.	.	.	.	.	.	.	.	.	.	.
!	!	!	!	!	!	!	!	!	!	!LO:LB:g=original	!	!	!	!	!LO:LB:g=original	!	!	!LO:LB:g=original	!	!	!	!	!	!	!	!	!	!	!	!	!	!	!
=51	=51	=51	=51	=51	=51	=51	=51	=51	=51	=51	=51	=51	=51	=51	=51	=51	=51	=51	=51	=51	=51	=51	=51	=51	=51	=51	=51	=51	=51	=51	=51	=51	=51
!	!	!	!LO:TX:a:t=....	!	!	!	!	!	!	!	!	!	!	!	!	!	!	!	!	!	!	!	!	!	!	!	!	!	!	!	!	!	!
4GG/	10	.	8ee'\L	.	(8bb-\L	.	.	2G\	-re-	2c\	-re-	2e\	-re-	.	2b-\	-re-	.	2e\	-re-	.	2b-\	-re-	.	.	.	2c/	.	2g\	.	2g/	.	2b-\	.
.	.	.	8ee'\	.	8aa\)	.	.	.	.	.	.	.	.	.	.	.	.	.	.	.	.	.	.	.	.	.	.	.	.	.	.	.	.
4G\	.	.	8ee'\	.	8gg'\	.	.	.	.	.	.	.	.	.	.	.	.	.	.	.	.	.	.	.	.	.	.	.	.	.	.	.	.
.	.	.	8ee'\J	.	8bb-'\J	.	.	.	.	.	.	.	.	.	.	.	.	.	.	.	.	.	.	.	.	.	.	.	.	.	.	.	.
*	*	*	*Xtremolo	*	*	*	*	*	*	*	*	*	*	*	*	*	*	*	*	*	*	*	*	*	*	*	*	*	*	*	*	*	*
4FF/	10	.	(8cc\L	.	(8aa\L	.	.	2F\	-re	2c\	-re	2f\	-re	.	2a\	-re	.	2f\	-re	.	2a\	-re	.	.	.	2f\	.	2a\	.	2f/	.	2a\	.
.	.	.	8b-\)	.	8gg\)	.	.	.	.	.	.	.	.	.	.	.	.	.	.	.	.	.	.	.	.	.	.	.	.	.	.	.	.
4F\	.	.	8a'\	.	8ff'\	.	.	.	.	.	.	.	.	.	.	.	.	.	.	.	.	.	.	.	.	.	.	.	.	.	.	.	.
.	.	.	8cc'\J	.	8aa'\J	.	.	.	.	.	.	.	.	.	.	.	.	.	.	.	.	.	.	.	.	.	.	.	.	.	.	.	.
!	!	!	!	!	!	!	!	!	!	!	!	!	!	!	!	!	!	!	!	!	!	!	!	!	!	!	!	!	!	!	!	!LO:LB:g=original	!
=52	=52	=52	=52	=52	=52	=52	=52	=52	=52	=52	=52	=52	=52	=52	=52	=52	=52	=52	=52	=52	=52	=52	=52	=52	=52	=52	=52	=52	=52	=52	=52	=52	=52
!	!	!	!	!	!	!	!	!	!	!	!	!	!	!	!	!	!	!	!	!	!	!	!	!	!	!LO:TX:a:t=1.	!	!LO:TX:a:t=1.	!	!	!	!	!
4BB-/	3	.	(8cc\L	.	(8aa\L	.	.	4B-\	mi-	4d\	mi-	4f\	mi-	.	4g\	mi-	.	4f\	mi-	.	4g\	mi-	.	1r	.	1r	.	1r	.	2b-\	.	2gg\	.
.	.	.	8b-\)	.	8gg\)	.	.	.	.	.	.	.	.	.	.	.	.	.	.	.	.	.	.	.	.	.	.	.	.	.	.	.	.
4B-\	6_	.	8b-'\	.	8gg'\	.	.	4B-\	-se-	4d\	-se-	4f\	-ſe-	.	4gg\	-ſe-	.	4f\	-se-	.	4gg\	-se-	.	.	.	.	.	.	.	.	.	.	.
.	.	.	8b-'\J	.	8gg'\J	.	.	.	.	.	.	.	.	.	.	.	.	.	.	.	.	.	.	.	.	.	.	.	.	.	.	.	.
4BBn/	.	.	(8bn\L	.	(8gg\L	.	.	4Bn\	-re-	4d\	-re-	4a-X\	-re-	.	8gg\L	-re-	.	4a-X\	-re-	.	8gg\L	-re-	.	.	.	.	.	.	.	2a-X\	.	2ff\	.
.	.	.	8a-X\)	.	8ff\)	.	.	.	.	.	.	.	.	.	8ff\J	.	.	.	.	.	8ff\J	.	.	.	.	.	.	.	.	.	.	.	.
4Bn\	5	.	8a-'\	.	8ff'\	.	.	4B\	-re	4d\	-re	4a-\	-re	.	4ff\	-re	.	4a-\	-re	.	4ff\	-re	.	.	.	.	.	.	.	.	.	.	.
.	.	.	8a-'\J	.	8ff'\J	.	.	.	.	.	.	.	.	.	.	.	.	.	.	.	.	.	.	.	.	.	.	.	.	.	.	.	.
!LO:LB:g=original	!	!	!	!	!	!	!	!	!	!	!	!LO:LB:g=original	!	!	!	!	!	!	!	!	!LO:LB:g=original	!	!	!	!	!	!	!	!	!	!	!	!
=53	=53	=53	=53	=53	=53	=53	=53	=53	=53	=53	=53	=53	=53	=53	=53	=53	=53	=53	=53	=53	=53	=53	=53	=53	=53	=53	=53	=53	=53	=53	=53	=53	=53
*	*	*	*	*	*	*	*	*	*	*	*	*	*	*	*	*	*	*	*	*	*	*	*	*^	*	*	*	*	*	*	*	*	*
4c\	4	.	4an/	.	4ff'\	.	.	4c\	no-	4c\	no-	4an\	no-	.	4ff\	no-	.	4an\	no-	.	4ff\	no-	.	4cc/	4c\	.	4f\	.	4a\	.	4anX\	.	4ff\	.
4C/	3	.	4g/	.	4ee'\	.	.	4C/	-bis	4c\	-bis	4g\	-bis	.	4ee\	-bis	.	4g\	-bis	.	4ee\	-bis	.	4cc/	4c\	.	4c/	.	4g\	.	4g\	.	4ee\	.
2r	.	.	8r	.	8r	.	.	2r	.	2r	.	2r	.	.	2r	.	.	2r	.	.	2r	.	.	2r	2ryy	.	2r	.	2r	.	2r	.	2r	.
.	.	.	8a/L	.	8cc'\L	.	.	.	.	.	.	.	.	.	.	.	.	.	.	.	.	.	.	.	.	.	.	.	.	.	.	.	.	.
.	.	.	8b-/	.	8dd'\	.	.	.	.	.	.	.	.	.	.	.	.	.	.	.	.	.	.	.	.	.	.	.	.	.	.	.	.	.
.	.	.	8g/J	.	8ee'\J	.	.	.	.	.	.	.	.	.	.	.	.	.	.	.	.	.	.	.	.	.	.	.	.	.	.	.	.	.
!	!	!	!	!	!LO:LB:g=original	!	!	!	!	!	!	!	!	!	!	!	!	!	!	!	!	!	!	!	!	!	!	!	!	!	!LO:LB:g=original	!	!	!
=54	=54	=54	=54	=54	=54	=54	=54	=54	=54	=54	=54	=54	=54	=54	=54	=54	=54	=54	=54	=54	=54	=54	=54	=54	=54	=54	=54	=54	=54	=54	=54	=54	=54	=54
!	!	!	!	!	!	!	!	!LO:TX:a:t=2.	!	!LO:TX:a:t=2.	!	!LO:TX:a:t=2.	!	!	!LO:TX:a:t=2	!	!	!LO:TX:a:t=2.	!	!	!LO:TX:a:t=2.	!	!	!	!	!	!	!	!	!	!	!	!	!
4F\	8_ 5_ 3_	.	4a 4f/	.	(8ff\L	.	.	0r	.	0r	.	0r	.	.	0r	.	.	0r	.	.	0r	.	.	4ff/	4cc\	.	4A/	.	4f\	.	4a\	.	4ff\	.
.	.	.	.	.	8ee\)	.	.	.	.	.	.	.	.	.	.	.	.	.	.	.	.	.	.	.	.	.	.	.	.	.	.	.	.	.
4F\	.	.	4a 4f/	.	8ff'\	.	.	.	.	.	.	.	.	.	.	.	.	.	.	.	.	.	.	4ff/	4cc\	.	4A/	.	4f\	.	4a\	.	4ff\	.
.	.	.	.	.	8aa'\J	.	.	.	.	.	.	.	.	.	.	.	.	.	.	.	.	.	.	.	.	.	.	.	.	.	.	.	.	.
*	*	*	*	*	*tremolo	*	*	*	*	*	*	*	*	*	*	*	*	*	*	*	*	*	*	*	*	*	*	*	*	*	*	*	*	*
!	!	!	!	!	!LO:TX:a:t=....	!	!	!	!	!	!	!	!	!	!	!	!	!	!	!	!	!	!	!	!	!	!	!	!	!	!	!	!	!
4r	.	.	4r	.	8cc'\L	.	.	.	.	.	.	.	.	.	.	.	.	.	.	.	.	.	.	4r	4ryy	.	4r	.	4r	.	4r	.	4r	.
.	.	.	.	.	8cc'\	.	.	.	.	.	.	.	.	.	.	.	.	.	.	.	.	.	.	.	.	.	.	.	.	.	.	.	.	.
4F\	.	.	4a 4f/	.	8cc'\	.	.	.	.	.	.	.	.	.	.	.	.	.	.	.	.	.	.	4ff/	4cc\	.	4A/	.	4f\	.	4a\	.	4ff\	.
.	.	.	.	.	8cc'\J	.	.	.	.	.	.	.	.	.	.	.	.	.	.	.	.	.	.	.	.	.	.	.	.	.	.	.	.	.
*	*	*	*	*	*Xtremolo	*	*	*	*	*	*	*	*	*	*	*	*	*	*	*	*	*	*	*	*	*	*	*	*	*	*	*	*	*
!	!	!	!LO:LB:g=original	!	!	!	!	!	!	!	!	!	!	!	!	!	!	!	!	!	!	!	!	!	!	!	!	!	!	!	!	!	!	!
=55	=55	=55	=55	=55	=55	=55	=55	=55	=55	=55	=55	=55	=55	=55	=55	=55	=55	=55	=55	=55	=55	=55	=55	=55	=55	=55	=55	=55	=55	=55	=55	=55	=55	=55
4F\	8_ 5_ 3_	.	4a 4f/	.	(8cc\L	.	.	.	.	.	.	.	.	.	.	.	.	.	.	.	.	.	.	4ff/	4cc\	.	4A/	.	4f\	.	4a\	.	4ff\	.
.	.	.	.	.	8bn\)	.	.	.	.	.	.	.	.	.	.	.	.	.	.	.	.	.	.	.	.	.	.	.	.	.	.	.	.	.
4F\	.	.	4a 4f/	.	8cc'\	.	.	.	.	.	.	.	.	.	.	.	.	.	.	.	.	.	.	4ff/	4cc\	.	4A/	.	4f\	.	4a\	.	4cc\	.
.	.	.	.	.	8ff'\J	.	.	.	.	.	.	.	.	.	.	.	.	.	.	.	.	.	.	.	.	.	.	.	.	.	.	.	.	.
4r	.	.	4r	.	8cc'\L	.	.	.	.	.	.	.	.	.	.	.	.	.	.	.	.	.	.	4r	4ryy	.	4r	.	4r	.	4r	.	4r	.
.	.	.	.	.	8cc'\	.	.	.	.	.	.	.	.	.	.	.	.	.	.	.	.	.	.	.	.	.	.	.	.	.	.	.	.	.
4F\	.	.	4a 4f/	.	(8a\	.	.	.	.	.	.	.	.	.	.	.	.	.	.	.	.	.	.	4ff/	4cc\	.	4A/	.	4f\	.	4a\	.	4cc\	.
.	.	.	.	.	8f\J)	.	.	.	.	.	.	.	.	.	.	.	.	.	.	.	.	.	.	.	.	.	.	.	.	.	.	.	.	.
!	!	!	!	!	!	!	!	!	!	!	!	!	!	!	!	!	!	!	!	!	!	!	!	!LO:LB:g=original	!	!	!	!	!	!	!	!	!	!
=56	=56	=56	=56	=56	=56	=56	=56	=56	=56	=56	=56	=56	=56	=56	=56	=56	=56	=56	=56	=56	=56	=56	=56	=56	=56	=56	=56	=56	=56	=56	=56	=56	=56	=56
!	!	!	!	!	!LO:TX:t=P:problem=mixed beam	!	!	!	!	!	!	!	!	!	!	!	!	!	!	!	!	!	!	!	!	!	!	!	!	!	!	!	!	!
4C\	7_	.	8g/	.	8e'/L	.	.	4C/	Spi-	4c\	Spi-	4g\	Spi-	.	4b-\	Spi-	.	4g\	Spi-	.	4b-\	Spi-	.	4ee/	4cc\	.	1c	.	1g	.	1g	.	1b-	.
.	.	.	4b- 4g/	.	(8bb-X\	.	.	.	.	.	.	.	.	.	.	.	.	.	.	.	.	.	.	.	.	.	.	.	.	.	.	.	.	.
4C\	.	.	.	.	8gg\	.	.	8C/	-ri-	8c\	-ri-	8g\	-ri-	.	8b-\	-ri-	.	8g\	-ri-	.	8b-\	-ri-	.	8ee/L	8cc\L	.	.	.	.	.	.	.	.	.
.	.	.	4b- 4g/	.	8ee\J)	.	.	8C/	-tus	8c\	-tus	8g\	-tus	.	8b-\	-tus	.	8g\	-tus	.	8b-\	-tus	.	8ee/J	8cc\J	.	.	.	.	.	.	.	.	.
4E\	.	.	.	.	(8cc\L	.	.	4E\	san-	4c\	san-	4g\	-ſan-	.	4b-\	-ſan-	.	4g\	San-	.	4b-\	san-	.	4ee/	4cc\	.	.	.	.	.	.	.	.	.
.	.	.	4b- 4g/	.	8b-\)	.	.	.	.	.	.	.	.	.	.	.	.	.	.	.	.	.	.	.	.	.	.	.	.	.	.	.	.	.
4C\	.	.	.	.	8g'\	.	.	4C/	-cte	4c\	-cte	4g\	-cte	.	4b-\	-cte	.	4g\	-cte	.	4b-\	-cte	.	4ee/	4cc\	.	.	.	.	.	.	.	.	.
.	.	.	8b- 8g/	.	8cc'\J	.	.	.	.	.	.	.	.	.	.	.	.	.	.	.	.	.	.	.	.	.	.	.	.	.	.	.	.	.
!	!	!	!	!	!	!	!	!LO:LB:g=original	!	!	!	!	!	!	!LO:LB:g=original	!	!	!	!	!	!	!	!	!	!	!	!	!	!	!	!	!	!	!
=57	=57	=57	=57	=57	=57	=57	=57	=57	=57	=57	=57	=57	=57	=57	=57	=57	=57	=57	=57	=57	=57	=57	=57	=57	=57	=57	=57	=57	=57	=57	=57	=57	=57	=57
4C/	7	.	4g/	.	4b-\	.	.	4C/	De-	4c\	De-	4g\	De-	.	4b-\	De-	.	4g\	De-	.	4b-\	De-	.	4ee/	4cc\	.	4c/	.	4g\	.	4g/	.	4b-\	.
4FF/	10	.	4f/	.	4a\	.	.	4F\	-us	4c\	-us	4f\	-us	.	4a\	-us	.	4f\	-us	.	4a\	-us	.	4ff/	4cc\	.	4A/	.	4f\	.	4f/	.	4a\	.
2r	.	.	8r	.	8r	.	.	2r	.	2r	.	2r	.	.	2r	.	.	2r	.	.	2r	.	.	2r	2ryy	.	2r	.	2r	.	2r	.	2r	.
.	.	.	8a/L	.	8cc\L	.	.	.	.	.	.	.	.	.	.	.	.	.	.	.	.	.	.	.	.	.	.	.	.	.	.	.	.	.
.	.	.	8b-/	.	8dd\	.	.	.	.	.	.	.	.	.	.	.	.	.	.	.	.	.	.	.	.	.	.	.	.	.	.	.	.	.
.	.	.	8g/J	.	8ee\J	.	.	.	.	.	.	.	.	.	.	.	.	.	.	.	.	.	.	.	.	.	.	.	.	.	.	.	.	.
!	!	!	!	!	!	!	!	!	!	!	!	!	!	!	!	!	!	!LO:LB:g=original	!	!	!	!	!	!	!	!	!	!	!	!	!	!	!	!
=58	=58	=58	=58	=58	=58	=58	=58	=58	=58	=58	=58	=58	=58	=58	=58	=58	=58	=58	=58	=58	=58	=58	=58	=58	=58	=58	=58	=58	=58	=58	=58	=58	=58	=58
!	!	!	!	!	!	!	!	!LO:TX:a:t=2	!	!LO:TX:a:t=2	!	!LO:TX:a:t=2.	!	!	!LO:TX:a:t=2.	!	!	!LO:TX:a:t=2	!	!	!LO:TX:a:t=2.	!	!	!	!	!	!	!	!	!	!	!	!	!
4F\	8_ 5_ 3_	.	4a 4f/	.	(8ff\L	.	.	0r	.	0r	.	0r	.	.	0r	.	.	0r	.	.	0r	.	.	4ff/	4cc\	.	4A/	.	4f\	.	4a\	.	4ff\	.
.	.	.	.	.	8ee\)	.	.	.	.	.	.	.	.	.	.	.	.	.	.	.	.	.	.	.	.	.	.	.	.	.	.	.	.	.
4F\	.	.	4a 4f/	.	8ff'\	.	.	.	.	.	.	.	.	.	.	.	.	.	.	.	.	.	.	4ff/	4cc\	.	4A/	.	4f\	.	4a\	.	4ff\	.
.	.	.	.	.	8aa'\J	.	.	.	.	.	.	.	.	.	.	.	.	.	.	.	.	.	.	.	.	.	.	.	.	.	.	.	.	.
*	*	*	*	*	*tremolo	*	*	*	*	*	*	*	*	*	*	*	*	*	*	*	*	*	*	*	*	*	*	*	*	*	*	*	*	*
!	!	!	!	!	!LO:TX:a:t=....	!	!	!	!	!	!	!	!	!	!	!	!	!	!	!	!	!	!	!	!	!	!	!	!	!	!	!	!	!
4r	.	.	4r	.	8cc'\L	.	.	.	.	.	.	.	.	.	.	.	.	.	.	.	.	.	.	4r	4ryy	.	4r	.	4r	.	4r	.	4r	.
.	.	.	.	.	8cc'\	.	.	.	.	.	.	.	.	.	.	.	.	.	.	.	.	.	.	.	.	.	.	.	.	.	.	.	.	.
4F\	.	.	4a 4f/	.	8cc'\	.	.	.	.	.	.	.	.	.	.	.	.	.	.	.	.	.	.	4ff/	4cc\	.	4A/	.	4f\	.	4a\	.	4ff\	.
.	.	.	.	.	8cc'\J	.	.	.	.	.	.	.	.	.	.	.	.	.	.	.	.	.	.	.	.	.	.	.	.	.	.	.	.	.
*	*	*	*	*	*Xtremolo	*	*	*	*	*	*	*	*	*	*	*	*	*	*	*	*	*	*	*	*	*	*	*	*	*	*	*	*	*
!	!	!	!	!	!LO:LB:g=original	!	!	!	!	!	!	!	!	!	!	!	!	!	!	!	!	!	!	!	!	!	!	!	!	!	!	!	!	!
=59	=59	=59	=59	=59	=59	=59	=59	=59	=59	=59	=59	=59	=59	=59	=59	=59	=59	=59	=59	=59	=59	=59	=59	=59	=59	=59	=59	=59	=59	=59	=59	=59	=59	=59
4F\	8_ 5_ 3_	.	4a 4f/	.	(8cc\L	.	.	.	.	.	.	.	.	.	.	.	.	.	.	.	.	.	.	4ff/	4cc\	.	4A/	.	4f\	.	4a\	.	4ff\	.
.	.	.	.	.	8bn\)	.	.	.	.	.	.	.	.	.	.	.	.	.	.	.	.	.	.	.	.	.	.	.	.	.	.	.	.	.
4F\	.	.	4a 4f/	.	8cc'\	.	.	.	.	.	.	.	.	.	.	.	.	.	.	.	.	.	.	4ff/	4cc\	.	4A/	.	4f\	.	4a\	.	4cc\	.
.	.	.	.	.	8ff'\J	.	.	.	.	.	.	.	.	.	.	.	.	.	.	.	.	.	.	.	.	.	.	.	.	.	.	.	.	.
4r	.	.	4r	.	8cc'\L	.	.	.	.	.	.	.	.	.	.	.	.	.	.	.	.	.	.	4r	4ryy	.	4r	.	4r	.	4r	.	4r	.
.	.	.	.	.	8cc'\	.	.	.	.	.	.	.	.	.	.	.	.	.	.	.	.	.	.	.	.	.	.	.	.	.	.	.	.	.
4F\	.	.	4a 4f/	.	(8a\	.	.	.	.	.	.	.	.	.	.	.	.	.	.	.	.	.	.	4ff/	4cc\	.	4A/	.	4f\	.	4a\	.	4cc\	.
.	.	.	.	.	8f\J)	.	.	.	.	.	.	.	.	.	.	.	.	.	.	.	.	.	.	.	.	.	.	.	.	.	.	.	.	.
!LO:LB:g=original	!	!	!	!	!	!	!	!	!	!LO:LB:g=original	!	!	!	!	!	!	!	!	!	!	!	!	!	!	!	!	!LO:LB:g=original	!	!LO:LB:g=original	!	!	!	!	!
=60	=60	=60	=60	=60	=60	=60	=60	=60	=60	=60	=60	=60	=60	=60	=60	=60	=60	=60	=60	=60	=60	=60	=60	=60	=60	=60	=60	=60	=60	=60	=60	=60	=60	=60
!	!	!	!	!	!LO:TX:t=P:problem=mixed beam	!	!	!	!	!	!	!	!	!	!	!	!	!	!	!	!	!	!	!	!	!	!	!	!LO:TX:t=P:problem=fragment nieczytelny	!	!	!	!	!
4C\	7_	.	8g/	.	8e'/L	.	.	4.C/	mi-	4.c\	mi-	4.g\	mi-	.	4.b-\	mi-	.	4.g\	mi-	.	4.b-\	mi-	.	4ee/	4cc\	.	2c/	.	2ryy	.	2g/	.	2b-\	.
.	.	.	4b- 4g/	.	(8bb-X\	.	.	.	.	.	.	.	.	.	.	.	.	.	.	.	.	.	.	.	.	.	.	.	.	.	.	.	.	.
4C\	.	.	.	.	8gg\	.	.	.	.	.	.	.	.	.	.	.	.	.	.	.	.	.	.	8ee/L	8cc\L	.	.	.	.	.	.	.	.	.
.	.	.	8b- 8g/	.	8ee\J)	.	.	8C/	-se-	8c\	-se-	8g\	-se-	.	8b-\	-ſe-	.	8g\	-se-	.	8b-\	-se-	.	8ee/J	8cc\J	.	.	.	.	.	.	.	.	.
4F\	3	.	8a/L	.	(8ff\L	.	.	4F\	-re-	4c\	-re-	4f\	-re-	.	4a\	-re-	.	4f\	-re-	.	4a\	-re-	.	4ff/	4cc\	.	4f\	.	4a\	.	4g/	.	4a\	.
.	.	.	8a/	.	8cc\)	.	.	.	.	.	.	.	.	.	.	.	.	.	.	.	.	.	.	.	.	.	.	.	.	.	.	.	.	.
4A\	.	.	8g/	.	8b-'\	.	.	4A\	-re	4c\	-re	4f\	-re	.	4a\	-re	.	4f\	-re	.	4a\	-re	.	8ff/L	8cc\L	.	4f\	.	4a\	.	4f/	.	4a\	.
.	.	.	8f/J	.	8a'\J	.	.	.	.	.	.	.	.	.	.	.	.	.	.	.	.	.	.	8ff/J	8cc\J	.	.	.	.	.	.	.	.	.
!	!	!	!LO:LB:g=original	!	!	!	!	!	!	!	!	!LO:LB:g=original	!	!	!	!	!	!	!	!	!	!	!	!	!	!	!	!	!	!	!	!	!LO:LB:g=original	!
=61	=61	=61	=61	=61	=61	=61	=61	=61	=61	=61	=61	=61	=61	=61	=61	=61	=61	=61	=61	=61	=61	=61	=61	=61	=61	=61	=61	=61	=61	=61	=61	=61	=61	=61
4c\	6	.	4f/	.	4a/	.	.	4c\	no-	4c\	no-	4f\	no-	.	4a\	no-	.	4f\	no-	.	4a\	no-	.	4cc/	4cc\	.	4f\	.	4a\	.	4f/	.	4a\	.
!	!	!	!	!	!	!	!	!	!	!	!	!	!	!	!	!	!	!	!	!	!	!	!	!	!	!	!	!	!LO:TX:t=P:problem=mixed beam	!	!	!	!	!
4C/	5	.	4e/	.	4g/	.	.	4C/	-bis	4c\	-bis	4e\	-bis	.	4g\	-bis	.	4e\	-bis	.	4g\	-bis	.	8.cc/L	8.c\L	.	8.c/L	.	8.g\L	ff	8.e/L	.	8.g\L	.
.	.	.	.	.	.	.	.	.	.	.	.	.	.	.	.	.	.	.	.	.	.	.	.	16cc/Jk	16c\Jk	.	16c/Jk	.	16c/Jk	.	16cc/Jk	.	16cc\Jk	.
!	!	!	!LO:TX:t=P:problem=mixed beam	!	!	!	!	!	!	!	!	!	!	!LO:DY:b:rj:t=ff	!	!	!	!	!	!LO:DY:rj:b	!	!	!	!	!	!	!	!	!	!	!	!	!	!
4r	.	.	8c/L	.	4r	.	.	2r	.	2r	.	4cc\	mi-	ff	2r	.	.	4cc\	mi-	ff	2r	.	.	4cc/	4c\	.	4c/	.	4c/	.	4cc\	.	4cc\	.
.	.	.	8cc\	.	.	.	.	.	.	.	.	.	.	.	.	.	.	.	.	.	.	.	.	.	.	.	.	.	.	.	.	.	.	.
4A\	6 3_	.	8cc\	.	4ff\	.	.	.	.	.	.	4cc\	-ſe-	.	.	.	.	4cc\	-se-	.	.	.	.	4cc/	4c\	.	4c/	.	4c/	.	4cc\	.	4ff\	.
.	.	.	8cc\J	.	.	.	.	.	.	.	.	.	.	.	.	.	.	.	.	.	.	.	.	.	.	.	.	.	.	.	.	.	.	.
!	!	!	!	!	!	!	!	!	!	!	!	!	!	!	!	!	!	!	!	!	!LO:LB:g=original	!	!	!	!	!	!	!	!	!	!	!	!	!
=62	=62	=62	=62	=62	=62	=62	=62	=62	=62	=62	=62	=62	=62	=62	=62	=62	=62	=62	=62	=62	=62	=62	=62	=62	=62	=62	=62	=62	=62	=62	=62	=62	=62	=62
*	*	*	*tremolo	*	*	*	*	*	*	*	*	*	*	*	*	*	*	*	*	*	*	*	*	*	*	*	*	*	*	*	*	*	*	*
!	!	!	!LO:TX:a:t=....	!	!	!	!	!	!	!	!	!	!	!	!	!	!	!	!	!	!	!	!	!	!	!	!	!	!	!	!	!	!	!
4B-\	4 _	.	8cc'\L	.	4ee\	.	.	4B-\	mi-	4c\	mi-	2.cc\	-re-	.	4ee\	mi-	.	2.cc\	-re-	.	4ee\	mi-	.	4cc/	4c\	.	1c	.	1c	.	2cc\	.	4ee\	.
.	.	.	8cc'\	.	.	.	.	.	.	.	.	.	.	.	.	.	.	.	.	.	.	.	.	.	.	.	.	.	.	.	.	.	.	.
4A\	5 _	.	8cc'\	.	4ffT\	.	.	4A\	-se-	4c\	-se-	.	.	.	4ff\	-ſe-	.	.	.	.	4ff\	-se-	.	4cc/	4c\	.	.	.	.	.	.	.	4ff\	.
.	.	.	8cc'\J	.	.	.	.	.	.	.	.	.	.	.	.	.	.	.	.	.	.	.	.	.	.	.	.	.	.	.	.	.	.	.
!	!	!	!LO:TX:a:t=....	!	!	!	!	!	!	!	!	!	!	!	!	!	!	!	!	!	!	!	!	!	!	!	!	!	!	!	!	!	!	!
4G\	8 _	.	8cc'\L	.	4gg\	.	.	4G\	-re-	4e\	-re-	.	.	.	4g\	-re-	.	.	.	.	4g\	-re-	.	4cc/	4c\	.	.	.	.	.	4ee\	.	4gg\	.
.	.	.	8cc'\	.	.	.	.	.	.	.	.	.	.	.	.	.	.	.	.	.	.	.	.	.	.	.	.	.	.	.	.	.	.	.
4F\	10 _	.	8cc'\	.	4aat\	.	.	4F\	-re	4f\	-re	4cc\	-re	.	4a\	-re	.	4cc\	-re	.	4a\	-re	.	4cc/	4c\	.	.	.	.	.	4ff\	.	4aa\	.
.	.	.	8cc'\J	.	.	.	.	.	.	.	.	.	.	.	.	.	.	.	.	.	.	.	.	.	.	.	.	.	.	.	.	.	.	.
*	*	*	*Xtremolo	*	*	*	*	*	*	*	*	*	*	*	*	*	*	*	*	*	*	*	*	*	*	*	*	*	*	*	*	*	*	*
!	!	!	!	!	!	!	!	!	!	!	!	!	!	!	!	!	!	!	!	!	!	!	!	!LO:LB:g=original	!	!	!	!	!	!	!LO:LB:g=original	!	!	!
=63	=63	=63	=63	=63	=63	=63	=63	=63	=63	=63	=63	=63	=63	=63	=63	=63	=63	=63	=63	=63	=63	=63	=63	=63	=63	=63	=63	=63	=63	=63	=63	=63	=63	=63
!	!	!	!LO:TX:t=P:problem=mixed beam	!	!	!	!	!	!	!	!	!	!	!	!	!	!	!	!	!	!	!	!	!	!	!	!	!	!	!	!	!	!	!
8E\L	6_ _	.	(8cc\L	.	4.ccc\	.	.	(4E\	no-	(4.e\	no-	2cc\	no-	.	(4.cc\	no-	.	2cc\	no-	.	(4.cc\	no-	.	2cc/	2c\	.	2c/	.	2g\	.	4.eeX\	.	4.ccc\	.
8C\	.	.	8c/)	.	.	.	.	.	.	.	.	.	.	.	.	.	.	.	.	.	.	.	.	.	.	.	.	.	.	.	.	.	.	.
8D\	.	.	8cc'\	.	.	.	.	4C\)	.	.	.	.	.	.	.	.	.	.	.	.	.	.	.	.	.	.	.	.	.	.	.	.	.	.
8E\J	5 _	.	8cc'\J	.	8bb-\	.	.	.	.	8g\)	.	.	.	.	8b-\)	.	.	.	.	.	8b-\)	.	.	.	.	.	.	.	.	.	8gg\	.	8bb-\	.
*	*	*	*tremolo	*	*	*	*	*	*	*	*	*	*	*	*	*	*	*	*	*	*	*	*	*	*	*	*	*	*	*	*	*	*	*
!	!	!	!LO:TX:a:t=....	!	!	!	!	!	!	!	!	!	!	!	!	!	!	!	!	!	!	!	!	!	!	!	!	!	!	!	!	!	!	!
4F\	3 _	.	8cc'\L	.	4aa\	.	.	4F\	-bis	4f\	-bis	4cc\	-bis	.	4a\	-bis	.	4cc\	-bis	.	4a\	-bis	.	4cc/	4c\	.	4f\	.	4a\	.	4ff\	.	4aa\	.
.	.	.	8cc'\	.	.	.	.	.	.	.	.	.	.	.	.	.	.	.	.	.	.	.	.	.	.	.	.	.	.	.	.	.	.	.
4A\	6 _	.	8cc'\	.	4ff\	.	.	4r	.	4r	.	8cc\	mi-	.	4r	.	.	8cc\	mi-	.	4r	.	.	8.cc/L	8.c\L	.	4r	.	4r	.	4cc\	.	4ff\	.
.	.	.	8cc'\J	.	.	.	.	.	.	.	.	8cc\	-ſe-	.	.	.	.	8cc\	-se-	.	.	.	.	.	.	.	.	.	.	.	.	.	.	.
.	.	.	.	.	.	.	.	.	.	.	.	.	.	.	.	.	.	.	.	.	.	.	.	16cc/Jk	16c\Jk	.	.	.	.	.	.	.	.	.
!	!	!	!	!	!	!	!	!LO:LB:g=original	!	!	!	!	!	!	!LO:LB:g=original	!	!	!	!	!	!	!	!	!	!	!	!	!	!	!	!	!	!	!
=64	=64	=64	=64	=64	=64	=64	=64	=64	=64	=64	=64	=64	=64	=64	=64	=64	=64	=64	=64	=64	=64	=64	=64	=64	=64	=64	=64	=64	=64	=64	=64	=64	=64	=64
!	!	!	!LO:TX:a:t=....	!	!	!	!	!	!	!	!	!	!	!	!	!	!	!	!	!	!	!	!	!	!	!	!	!	!	!	!	!	!	!
4B-\	4 _	.	8cc'\L	.	4ee\	.	.	4B-\	mi-	4c\	mi-	2.cc\	-re-	.	4ee\	mi-	.	2.cc\	-re-	.	4ee\	mi-	.	4cc/	4c\	.	1c	.	1c	.	2cc\	.	4ee\	.
.	.	.	8cc'\	.	.	.	.	.	.	.	.	.	.	.	.	.	.	.	.	.	.	.	.	.	.	.	.	.	.	.	.	.	.	.
4A\	6 _	.	8cc'\	.	4ffT\	.	.	4A\	-se-	4c\	-se-	.	.	.	4ff\	-ſe-	.	.	.	.	4ff\	-se-	.	4cc/	4c\	.	.	.	.	.	.	.	4ff\	.
.	.	.	8cc'\J	.	.	.	.	.	.	.	.	.	.	.	.	.	.	.	.	.	.	.	.	.	.	.	.	.	.	.	.	.	.	.
!	!	!	!LO:TX:a:t=....	!	!	!	!	!	!	!	!	!	!	!	!	!	!	!	!	!	!	!	!	!	!	!	!	!	!	!	!	!	!	!
4G\	8 _	.	8cc'\L	.	4gg\	.	.	4G\	-re-	4e\	-re-	.	.	.	4g\	-re-	.	.	.	.	4g\	-re-	.	4cc/	4c\	.	.	.	.	.	4ee\	.	4gg\	.
.	.	.	8cc'\	.	.	.	.	.	.	.	.	.	.	.	.	.	.	.	.	.	.	.	.	.	.	.	.	.	.	.	.	.	.	.
4F\	10 _	.	8cc'\	.	4aat\	.	.	4F\	-re	4f\	-re	4cc\	-re	.	4a\	-re	.	4cc\	-re	.	4a\	-re	.	4cc/	4c\	.	.	.	.	.	4ff\	.	4aa\	.
.	.	.	8cc'\J	.	.	.	.	.	.	.	.	.	.	.	.	.	.	.	.	.	.	.	.	.	.	.	.	.	.	.	.	.	.	.
*	*	*	*Xtremolo	*	*	*	*	*	*	*	*	*	*	*	*	*	*	*	*	*	*	*	*	*	*	*	*	*	*	*	*	*	*	*
!	!	!	!	!	!LO:LB:g=original	!	!	!	!	!LO:LB:g=original	!	!	!	!	!	!	!	!LO:LB:g=original	!	!	!	!	!	!	!	!	!	!	!	!	!	!	!	!
=65	=65	=65	=65	=65	=65	=65	=65	=65	=65	=65	=65	=65	=65	=65	=65	=65	=65	=65	=65	=65	=65	=65	=65	=65	=65	=65	=65	=65	=65	=65	=65	=65	=65	=65
!	!	!	!LO:TX:t=P:problem=mixed beam	!	!	!	!	!	!	!	!	!	!	!	!	!	!	!	!	!	!	!	!	!	!	!	!	!	!	!	!	!	!	!
8E\L	6_ _	.	(8cc\L	.	4.ccc\	.	.	(4E\	no-	(4.e\	no-	2cc\	no-	.	(4.cc\	no-	.	2cc\	no-	.	(4.cc\	no-	.	2cc/	2c\	.	2c/	.	2g\	.	4.ee\	.	4.ccc\	.
8C\	.	.	8c/)	.	.	.	.	.	.	.	.	.	.	.	.	.	.	.	.	.	.	.	.	.	.	.	.	.	.	.	.	.	.	.
8D\	.	.	8cc'\	.	.	.	.	4C\)	.	.	.	.	.	.	.	.	.	.	.	.	.	.	.	.	.	.	.	.	.	.	.	.	.	.
8E\J	5 _	.	8cc'\J	.	8bb-\	.	.	.	.	8g\)	.	.	.	.	8b-\)	.	.	.	.	.	8b-\)	.	.	.	.	.	.	.	.	.	8gg\	.	8bb-\	.
*	*	*	*tremolo	*	*	*	*	*	*	*	*	*	*	*	*	*	*	*	*	*	*	*	*	*	*	*	*	*	*	*	*	*	*	*
!	!	!	!LO:TX:a:t=....	!	!	!	!	!	!	!	!	!	!	!	!	!	!	!	!	!	!	!	!	!	!	!	!	!	!	!	!	!	!	!
4F\	3 _	.	8cc'\L	.	4aa\	.	.	4F\	-bis	4f\	-bis	4cc\	-bis	.	4a\	-bis	.	4cc\	-bis	.	4a\	-bis	.	4cc/	4c\	.	4f\	.	4a\	.	4ff\	.	4aa\	.
.	.	.	8cc'\	.	.	.	.	.	.	.	.	.	.	.	.	.	.	.	.	.	.	.	.	.	.	.	.	.	.	.	.	.	.	.
4A\	6	.	8cc'\	.	4ff\	.	.	8F\	mi-	8A\	mi-	8cc\	mi-	.	8ff\	mi-	.	8cc\	mi-	.	8ff\	mi-	.	8.cc/L	8.cc\L	.	4f\	.	4a\	.	4cc\	.	4ff\	.
.	.	.	8cc'\J	.	.	.	.	8F\	-se-	8A\	-se-	8cc\	-ſe-	.	8ff\	-ſe-	.	8cc\	-se-	.	8ff\	-se-	.	.	.	.	.	.	.	.	.	.	.	.
.	.	.	.	.	.	.	.	.	.	.	.	.	.	.	.	.	.	.	.	.	.	.	.	16cc/Jk	16cc\Jk	.	.	.	.	.	.	.	.	.
*	*	*	*Xtremolo	*	*	*	*	*	*	*	*	*	*	*	*	*	*	*	*	*	*	*	*	*	*	*	*	*	*	*	*	*	*	*
!LO:LB:g=original	!	!	!	!	!	!	!	!	!	!	!	!LO:LB:g=original	!	!	!	!	!	!	!	!	!LO:LB:g=original	!	!	!	!	!	!	!	!	!	!	!	!	!
=66	=66	=66	=66	=66	=66	=66	=66	=66	=66	=66	=66	=66	=66	=66	=66	=66	=66	=66	=66	=66	=66	=66	=66	=66	=66	=66	=66	=66	=66	=66	=66	=66	=66	=66
!	!	!	!	!	!	!	!	!	!	!	!	!	!	!	!	!	!	!	!	!	!	!	!	!	!LO:SIC:v:b:s=2b-\	!	!	!	!	!	!	!	!	!
4B-\	6_ 3_	.	(8a\L	.	(8ff#X\L	.	.	4B-\	-re-	4d\	-re-	4b-\	-re-	.	4gg\	-re-	.	4b-\	-re-	.	4gg\	-re-	.	2dd/	2b\	.	2g\	.	2g\	.	2b-\	.	2gg\	.
.	.	.	8b-\)	.	8gg\)	.	.	.	.	.	.	.	.	.	.	.	.	.	.	.	.	.	.	.	.	.	.	.	.	.	.	.	.	.
4B-\	.	.	8dd'\	.	8bb-'\	.	.	4B-\	-re	4d\	-re	4b-\	-re	.	4gg\	-re	.	4b-\	-re	.	4gg\	-re	.	.	.	.	.	.	.	.	.	.	.	.
.	.	.	8b-'\J	.	8gg'\J	.	.	.	.	.	.	.	.	.	.	.	.	.	.	.	.	.	.	.	.	.	.	.	.	.	.	.	.	.
4c\	4	.	4a/	.	4ffn\	.	.	(4c\	no-	2c\	no-	(4a\	no-	.	(4ff\	no-	.	(4a\	no-	.	(4ff\	no-	.	4cc/	4cc\	.	4f\	.	4a\	.	4a/	.	4ff\	.
4C/	3	.	4g/	.	4ee\	.	.	4C/)	.	.	.	4g\)	.	.	4ee\)	.	.	4g\)	.	.	4ee\)	.	.	4cc/	4cc\	.	4c/	.	4g\	.	4g/	.	4ee\	.
=67	=67	=67	=67	=67	=67	=67	=67	=67	=67	=67	=67	=67	=67	=67	=67	=67	=67	=67	=67	=67	=67	=67	=67	=67	=67	=67	=67	=67	=67	=67	=67	=67	=67	=67
*	*	*	*tremolo	*	*tremolo	*	*	*	*	*	*	*	*	*	*	*	*	*	*	*	*	*	*	*	*	*	*	*	*	*	*	*	*	*
!	!	!	!	!	!LO:TX:a:t=....	!	!	!	!	!	!	!	!	!	!	!	!	!	!	!	!	!	!	!	!	!	!	!	!	!	!	!	!	!
4F\	8_ 3_	.	8a/L	.	8ff'\L	.	.	2F\	-bis	2c\	-bis	2a\	-bis	.	2ff\	-bis	.	2a\	-bis	.	2ff\	-bis	.	4cc/	4cc\	.	4A/	.	4f\	.	1a	.	1ff	.
.	.	.	8a/	.	8ff'\	.	.	.	.	.	.	.	.	.	.	.	.	.	.	.	.	.	.	.	.	.	.	.	.	.	.	.	.	.
4F\	.	.	8a/	.	8ff'\	.	.	.	.	.	.	.	.	.	.	.	.	.	.	.	.	.	.	4r	4ryy	.	4r	.	4r	.	.	.	.	.
.	.	.	8a/J	.	8ff'\J	.	.	.	.	.	.	.	.	.	.	.	.	.	.	.	.	.	.	.	.	.	.	.	.	.	.	.	.	.
!	!	!	!	!	!LO:TX:a:t=....	!	!	!	!	!	!	!	!	!	!	!	!	!	!	!	!	!	!	!	!	!	!	!	!	!	!	!	!	!
4D\	.	.	8a/L	.	8ff'\L	.	.	4D\	mi-	4c\	mi-	4a\	mi-	.	4ff\	mi-	.	4a\	mi-	.	4ff\	mi-	.	2r	2ryy	.	2r	.	2r	.	.	.	.	.
.	.	.	8a/	.	8ff'\	.	.	.	.	.	.	.	.	.	.	.	.	.	.	.	.	.	.	.	.	.	.	.	.	.	.	.	.	.
4D\	.	.	8a/	.	8ff'\	.	.	4D\	-se-	4c\	-se-	4a\	-ſe-	.	4ff\	-ſe-	.	4a\	-se-	.	4ff\	-se-	.	.	.	.	.	.	.	.	.	.	.	.
.	.	.	8a/J	.	8ff'\J	.	.	.	.	.	.	.	.	.	.	.	.	.	.	.	.	.	.	.	.	.	.	.	.	.	.	.	.	.
*	*	*	*	*	*	*	*	*	*	*	*	*	*	*	*	*	*	*	*	*	*	*	*	*v	*v	*	*	*	*	*	*	*	*	*
!	!	!	!LO:LB:g=original	!	!	!	!	!	!	!	!	!	!	!	!LO:LB:g=original	!	!	!	!	!	!	!	!	!	!	!	!	!	!	!	!	!	!
=68	=68	=68	=68	=68	=68	=68	=68	=68	=68	=68	=68	=68	=68	=68	=68	=68	=68	=68	=68	=68	=68	=68	=68	=68	=68	=68	=68	=68	=68	=68	=68	=68	=68
!	!	!	!	!	!LO:TX:a:t=....	!	!	!	!	!	!	!	!	!	!	!	!	!	!	!	!	!	!	!LO:TX:t=P:problem=brak taktów nr 68-71	!	!	!	!	!	!	!	!	!
4BB-/	.	.	8g/L	.	8ff'\L	.	.	4BB-/	-re-	4d\	-re-	4g\	-re-	.	4ff\	-re-	.	4g\	-re-	.	4ff\	-re-	.	1ryy	.	2r	.	2r	.	2g\	.	2ff\	.
.	.	.	8g/	.	8ff'\	.	.	.	.	.	.	.	.	.	.	.	.	.	.	.	.	.	.	.	.	.	.	.	.	.	.	.	.
4BB-/	.	.	8g/	.	8ff'\	.	.	4BB-/	-re	4d\	-re	4g\	-re	.	4ff\	-re	.	4g\	-re	.	4ff\	-re	.	.	.	.	.	.	.	.	.	.	.
.	.	.	8g/J	.	8ff'\J	.	.	.	.	.	.	.	.	.	.	.	.	.	.	.	.	.	.	.	.	.	.	.	.	.	.	.	.
!	!	!	!	!	!LO:TX:a:t=....	!	!	!	!	!	!	!	!	!	!	!	!	!	!	!	!	!	!	!	!	!	!	!	!	!	!	!	!
4C/	3	.	8b- 8g/L	.	8ee'\L	.	.	2C/	no-	2c\	no-	2g\	no-	.	2ee\	no-	.	2g\	no-	.	2ee\	no-	.	.	.	2c/	.	2g\	.	2b-\	.	2ee\	.
.	.	.	8b- 8g/	.	8ee'\	.	.	.	.	.	.	.	.	.	.	.	.	.	.	.	.	.	.	.	.	.	.	.	.	.	.	.	.
4C/	.	.	8b- 8g/	.	8ee'\	.	.	.	.	.	.	.	.	.	.	.	.	.	.	.	.	.	.	.	.	.	.	.	.	.	.	.	.
.	.	.	8b- 8g/J	.	8ee'\J	.	.	.	.	.	.	.	.	.	.	.	.	.	.	.	.	.	.	.	.	.	.	.	.	.	.	.	.
*	*	*	*Xtremolo	*	*Xtremolo	*	*	*	*	*	*	*	*	*	*	*	*	*	*	*	*	*	*	*	*	*	*	*	*	*	*	*	*
!	!	!	!	!	!	!	!	!LO:LB:g=original	!	!	!	!	!	!	!	!	!	!	!	!	!	!	!	!	!	!	!	!	!	!	!	!	!
=69	=69	=69	=69	=69	=69	=69	=69	=69	=69	=69	=69	=69	=69	=69	=69	=69	=69	=69	=69	=69	=69	=69	=69	=69	=69	=69	=69	=69	=69	=69	=69	=69	=69
!	!	!	!LO:TX:t=P:problem=mixed beam	!	!	!	!	!	!	!	!	!	!	!	!	!	!	!	!	!	!	!	!	!	!	!	!	!	!	!	!	!	!
4F\	8_ 3_	.	8a/L	.	8ff\L	.	.	2F\	-bis	2c\	-bis	2a\	-bis	.	2ff\	-bis	.	2a\	-bis	.	2ff\	-bis	.	1ryy	.	2f\	.	2a\	.	1a	.	1ff	.
.	.	.	8aa\	.	8fff\	.	.	.	.	.	.	.	.	.	.	.	.	.	.	.	.	.	.	.	.	.	.	.	.	.	.	.	.
4F\	.	.	8aa\	.	8fff\	.	.	.	.	.	.	.	.	.	.	.	.	.	.	.	.	.	.	.	.	.	.	.	.	.	.	.	.
.	.	.	8aa\J	.	8fff\J	.	.	.	.	.	.	.	.	.	.	.	.	.	.	.	.	.	.	.	.	.	.	.	.	.	.	.	.
*	*	*	*tremolo	*	*tremolo	*	*	*	*	*	*	*	*	*	*	*	*	*	*	*	*	*	*	*	*	*	*	*	*	*	*	*	*
4d\	.	.	8aa\L	.	8fff\L	.	.	4d\	mi-	4c\	mi-	4a\	mi-	.	4ff\	mi-	.	4a\	mi-	.	4ff\	mi-	.	.	.	2r	.	2r	.	.	.	.	.
.	.	.	8aa\	.	8fff\	.	.	.	.	.	.	.	.	.	.	.	.	.	.	.	.	.	.	.	.	.	.	.	.	.	.	.	.
4d\	.	.	8aa\	.	8fff\	.	.	4d\	-ſe-	4c\	-se-	4a\	-ſe-	.	4ff\	-ſe-	.	4a\	-se-	.	4ff\	-se-	.	.	.	.	.	.	.	.	.	.	.
.	.	.	8aa\J	.	8fff\J	.	.	.	.	.	.	.	.	.	.	.	.	.	.	.	.	.	.	.	.	.	.	.	.	.	.	.	.
!	!	!	!	!	!	!	!	!	!	!LO:LB:g=original	!	!	!	!	!	!	!	!LO:LB:g=original	!	!	!	!	!	!	!	!	!	!LO:LB:g=original	!	!	!	!LO:LB:g=original	!
=70	=70	=70	=70	=70	=70	=70	=70	=70	=70	=70	=70	=70	=70	=70	=70	=70	=70	=70	=70	=70	=70	=70	=70	=70	=70	=70	=70	=70	=70	=70	=70	=70	=70
!	!	!	!	!	!	!	!	!	!	!	!	!	!	!	!	!	!	!	!	!	!	!	!	!	!	!	!	!LO:TX:a:t=P:problem=fragment nieczytelny	!	!	!	!	!
4B-\	.	.	8gg\L	.	8fff\L	.	.	4B-\	-re-	4d\	-re-	4g\	-re-	.	4ff\	-re-	.	4g\	-re-	.	4ff\	-re-	.	1ryy	.	2r	.	2ryy	.	2g\	.	2ff\	.
.	.	.	8gg\	.	8fff\	.	.	.	.	.	.	.	.	.	.	.	.	.	.	.	.	.	.	.	.	.	.	.	.	.	.	.	.
4B-\	.	.	8gg\	.	8fff\	.	.	4B-\	-re	4d\	-re	4g\	-re	.	4ff\	-re	.	4g\	-re	.	4ff\	-re	.	.	.	.	.	.	.	.	.	.	.
.	.	.	8gg\J	.	8fff\J	.	.	.	.	.	.	.	.	.	.	.	.	.	.	.	.	.	.	.	.	.	.	.	.	.	.	.	.
4c\	3	.	8gg\L	.	8eee\L	.	.	2c\	no-	2c\	no-	2g\	no-	.	2ee\	no-	.	2g\	no-	.	2ee\	no-	.	.	.	2c/	.	2g\	.	2b-\	.	2ee\	.
.	.	.	8gg\	.	8eee\	.	.	.	.	.	.	.	.	.	.	.	.	.	.	.	.	.	.	.	.	.	.	.	.	.	.	.	.
4c\	.	.	8gg\	.	8eee\	.	.	.	.	.	.	.	.	.	.	.	.	.	.	.	.	.	.	.	.	.	.	.	.	.	.	.	.
.	.	.	8gg\J	.	8eee\J	.	.	.	.	.	.	.	.	.	.	.	.	.	.	.	.	.	.	.	.	.	.	.	.	.	.	.	.
*	*	*	*Xtremolo	*	*Xtremolo	*	*	*	*	*	*	*	*	*	*	*	*	*	*	*	*	*	*	*	*	*	*	*	*	*	*	*	*
!	!	!	!	!	!LO:LB:g=original	!	!	!	!	!	!	!LO:LB:g=original	!	!	!	!	!	!	!	!	!LO:LB:g=original	!	!	!	!	!LO:LB:g=original	!	!	!	!	!	!	!
=71	=71	=71	=71	=71	=71	=71	=71	=71	=71	=71	=71	=71	=71	=71	=71	=71	=71	=71	=71	=71	=71	=71	=71	=71	=71	=71	=71	=71	=71	=71	=71	=71	=71
4F\	8 5 3	.	4aa\	.	4fff\	.	.	4F\	-bis	4c\	-bis	4a\	-bis	.	4ff\	-bis	.	4a\	-bis	.	4ff\	-bis	.	1ryy	.	4A/	.	4f\	.	4a\	.	4ff\	.
4r	.	.	4r	.	4r	.	.	4r	.	4r	.	4r	.	.	4r	.	.	4r	.	.	4r	.	.	.	.	4r	.	4r	.	4r	.	4r	.
!	!	!	!	!	!	!	!	!	!	!	!	!	!	!	!	!	!	!	!	!	!	!	!	!	!	!	!LO:DY:rj:t=ff	!	!LO:DY:rj	!	!	!	!LO:DY:rj
2r	.	.	2r	.	2r	.	.	4A\	mi-	4A\	mi-	4a\	mi-	.	4a\	mi-	.	4a\	mi-	.	4a\	mi-	.	.	.	4A/	ff	4a\	ff	4a\	.	4aa\	ff
.	.	ff	.	.	.	ff	.	4A\	-ſe-	4A\	-se-	4a\	-ſe-	.	4a\	-ſe-	.	4a\	-se-	.	4a\	-se-	.	.	.	4A/	.	4a\	.	4a\	.	4aa\	.
!	!	!	!	!	!	!	!	!	!	!	!	!	!	!	!LO:LB:g=original	!	!	!	!	!	!	!	!	!	!	!	!	!	!	!	!	!	!
=72	=72	=72	=72	=72	=72	=72	=72	=72	=72	=72	=72	=72	=72	=72	=72	=72	=72	=72	=72	=72	=72	=72	=72	=72	=72	=72	=72	=72	=72	=72	=72	=72	=72
*	*	*	*	*	*	*	*	*	*	*	*	*	*	*	*	*	*	*	*	*	*	*	*	*^	*	*	*	*	*	*	*	*	*
4C/	5	.	4gg 4cc 4e/	.	4gg 4cc 4e/	.	.	2.c\	-re-	2.c\	-re-	2.cc\	-re-	.	2.cc\	-re-	.	2.cc\	-re-	.	2.cc\	-re-	.	4cc/	4c\	.	2.c/	.	2.cc\	.	2.cc\	.	2.ccc\	.
4r	.	.	4r	.	4r	.	.	.	.	.	.	.	.	.	.	.	.	.	.	.	.	.	.	4r	4ryy	.	.	.	.	.	.	.	.	.
4C/	8 5 3	.	4ccc 4ee 4g/	.	4ccc 4ee 4g/	.	.	.	.	.	.	.	.	.	.	.	.	.	.	.	.	.	.	4cc/	4c\	.	.	.	.	.	.	.	.	.
4r	.	.	4r	.	4r	.	.	4c\	-re	4c\	-re	4cc\	-re	.	4cc\	-re	.	4cc\	-re	.	4cc\	-re	.	4r	4ryy	.	4c/	.	4cc\	.	4cc\	.	4ccc\	.
=73	=73	=73	=73	=73	=73	=73	=73	=73	=73	=73	=73	=73	=73	=73	=73	=73	=73	=73	=73	=73	=73	=73	=73	=73	=73	=73	=73	=73	=73	=73	=73	=73	=73	=73
4F\	8_ 5_ 3_	.	4aa 4cc 4f/	.	4aa 4cc 4f/	.	.	4A\	no-	4A\	no-	4a\	no-	.	4a\	no-	.	4a\	no-	.	4a\	no-	.	4cc/	4c\	.	4A/	.	4a\	.	4a/	.	4aa\	.
4FF/	.	.	4ff 4cc 4f/	.	4ff 4cc 4f/	.	.	4F\	-bis	4F/	-bis	4f\	-bis	.	4f/	-bis	.	4f\	-bis	.	4f/	-bis	.	4cc/	4c\	.	4F/	.	4f\	.	4f/	.	4ff\	.
2r	x	.	2r	.	2r	.	.	2r	.	2r	.	2r	.	.	2r	.	.	2r	.	.	2r	.	.	2r	2ryy	.	2r	.	2r	.	2r	.	2r	.
*	*	*	*	*	*	*	*	*	*	*	*	*	*	*	*	*	*	*	*	*	*	*	*	*v	*v	*	*	*	*	*	*	*	*	*
==	==	==	==	==	==	==	==	==	==	==	==	==	==	==	==	==	==	==	==	==	==	==	==	==	==	==	==	==	==	==	==	==	==
*-	*-	*-	*-	*-	*-	*-	*-	*-	*-	*-	*-	*-	*-	*-	*-	*-	*-	*-	*-	*-	*-	*-	*-	*-	*-	*-	*-	*-	*-	*-	*-	*-	*-
!!!system-decoration: [(g1)][(g2)][(g3)][(g4)][(g5)]<s14>
!!!RDF**kern: > = above
!!!RDF**kern: < = below
!!!RDF**kern: | = vertical stroke
!!!RDF**dynam: p = "p."
!!!RDF**dynam: f = "f."
!!!RDF**dynam: f = "ff."
!!!AIN: 2 alto 1 bass 2 clars 2 cor 1 organ 2 soprn 1 tenor 1 tromp 2 violn
!!!ENC: Andrzej Borzym
!!!END: 2020-10-09
!!!ENC: Andrzej Kubiczek
!!!END: 2022-01-16
